!!!!SEGMENT: pl-wtm--r-690-m--008_moniuszko-stanislaw--sonety-krymskie-hymn-czatyrdah.krn
!!!cenid: 18xx:2708
!!!COM: Moniuszko, Stanisław
!!!COM-rismID: pe30008351
!!!CDT: 1819/05/05-1872/06/04
!!!CNT: Polish
!!!GTL: Sonety krymskie
!!!OTL: Hymn Czatyrdah
!!!OMV: 008
!!!PDT:
!!!AGN: Secular
!!!SMS-siglum: PL-Wtm
!!!SMS-shelfmark: R 690/M
!!!SMS-shelfwork: 001-008 G
!!!SMS-variant:
!!!SMS-altvar:
!!!NIFC-rismSourceID: 1001095916
!!!NIFC-islandoraID:
!!!URL-pdf-islandora:
!!!URL-scan:
!!!ONB-nifc: No. 7, od skanu 0068
!!!OMD: Maëstoso.
!!!AIN: 1 bass 1 cello 1 clars 8 empty 1 fagot 1 oboe 1 ophic 1 timpa 1 viola 2 violn
!!!key:
**kern	**dynam	**kern	**dynam	**kern	**text	**dynam	**kern	**text	**dynam	**kern	**text	**dynam	**kern	**text	**dynam	**kern	**dynam	**kern	**dynam	**kern	**dynam	**kern	**dynam	**kern	**dynam	**kern	**dynam	**kern	**dynam	**kern	**dynam	**kern	**dynam	**kern	**dynam	**kern	**dynam	**kern	**dynam
*	*	*	*	*group3	*	*	*group3	*	*	*group3	*	*	*group3	*	*	*	*	*	*	*	*	*	*	*	*	*group2	*	*group2	*	*group1	*	*group1	*	*	*	*	*	*	*
*	*	*	*	*I""Coro.	*	*	*I""Coro.	*	*	*I""Coro.	*	*	*I""Coro.	*	*	*	*	*	*	*	*	*	*	*	*	*I""3 Tromboni.	*	*I""3 Tromboni.	*	*I""Corni.	*	*I""Corni.	*	*	*	*	*	*	*
*part18	*part18	*part17	*part17	*part16	*part16	*part16	*part15	*part15	*part15	*part14	*part14	*part14	*part13	*part13	*part13	*part12	*part12	*part11	*part11	*part10	*part10	*part9	*part9	*part8	*part8	*part7	*part7	*part6	*part6	*part5	*part5	*part4	*part4	*part3	*part3	*part2	*part2	*part1	*part1
*staff18	*	*staff17	*	*staff16	*staff16	*	*staff15	*staff15	*	*staff14	*staff14	*	*staff13	*staff13	*	*staff12	*	*staff11	*	*staff10	*	*staff9	*	*staff8	*	*staff7	*	*staff6	*	*staff5	*	*staff4	*	*staff3	*	*staff2	*	*staff1	*
*Ibass	*	*Icello	*	*Iempty	*	*	*Iempty	*	*	*Iempty	*	*	*Iempty	*	*	*Iviola	*	*Ivioln	*	*Ivioln	*	*Itimpa	*	*Iophic	*	*Iempty	*	*Iempty	*	*Iempty	*	*Iempty	*	*Ifagot	*	*Iclars	*	*Ioboe	*
*I"CB.	*	*I"Vceli.	*	*	*	*	*	*	*	*	*	*	*	*	*	*I"Vla	*	*I"V. 2do.	*	*I"V. 1m	*	*I"Timp. in Es. B	*	*I"Ophicleide	*	*	*	*	*	*I"in Es	*	*I"in F.	*	*I"Fagotti	*	*I"Clarinetti in B.	*	*I"Oboi.	*
*clefF4	*	*clefF4	*	*clefF4	*	*	*clefGv2	*	*	*clefG2	*	*	*clefG2	*	*	*clefC3	*	*clefG2	*	*clefG2	*	*clefF4	*	*clefF4	*	*clefF4	*	*clefC4	*	*clefG2	*	*clefG2	*	*clefF4	*	*clefG2	*	*clefG2	*
*ITrd0c0	*	*	*	*	*	*	*	*	*	*	*	*	*	*	*	*	*	*	*	*	*	*	*	*	*	*	*	*	*	*ITrd-2c-3	*	*ITrd4c7	*	*	*	*ITrd1c2	*	*	*
*k[b-e-a-d-g-]	*	*k[b-e-a-d-g-]	*	*k[b-e-a-d-g-]	*	*	*k[b-e-a-d-g-]	*	*	*k[b-e-a-d-g-]	*	*	*k[b-e-a-d-g-]	*	*	*k[b-e-a-d-g-]	*	*k[b-e-a-d-g-]	*	*k[b-e-a-d-g-]	*	*k[]	*	*k[b-e-a-d-g-]	*	*k[b-e-a-d-g-]	*	*k[b-e-a-d-g-]	*	*k[b-e-a-]	*	*k[b-]	*	*k[b-e-a-d-g-]	*	*k[b-e-a-d-g-]	*	*k[b-e-a-d-g-]	*
*D-:	*	*D-:	*	*D-:	*	*	*D-:	*	*	*D-:	*	*	*D-:	*	*	*D-:	*	*D-:	*	*D-:	*	*D-:	*	*D-:	*	*D-:	*	*D-:	*	*D-:	*	*D-:	*	*D-:	*	*D-:	*	*D-:	*
*M2/2	*	*M2/2	*	*M2/2	*	*	*M2/2	*	*	*M2/2	*	*	*M2/2	*	*	*M2/2	*	*M2/2	*	*M2/2	*	*M2/2	*	*M2/2	*	*M2/2	*	*M2/2	*	*M2/2	*	*M2/2	*	*M2/2	*	*M2/2	*	*M2/2	*
*met(c|)	*	*met(c|)	*	*met(c|)	*	*	*met(c|)	*	*	*met(c|)	*	*	*met(c|)	*	*	*met(c|)	*	*met(c|)	*	*met(c|)	*	*met(c|)	*	*met(c|)	*	*met(c|)	*	*met(c|)	*	*met(c|)	*	*met(c|)	*	*met(c|)	*	*met(c|)	*	*met(c|)	*
=1	=1	=1	=1	=1	=1	=1	=1	=1	=1	=1	=1	=1	=1	=1	=1	=1	=1	=1	=1	=1	=1	=1	=1	=1	=1	=1	=1	=1	=1	=1	=1	=1	=1	=1	=1	=1	=1	=1	=1
*all\right	*	*all\right	*	*all\right	*	*	*all\right	*	*	*all\right	*	*	*all\right	*	*	*all\right	*	*all\right	*	*all\right	*	*all\right	*	*all\right	*	*all\right	*	*all\right	*	*all\right	*	*all\right	*	*all\right	*	*all\right	*	*all\right	*
!LO:TX:a:t=P:problem=klucz i znaki zapisane znakiem powtórki	!	!LO:TX:a:t=P:problem=klucz i znaki zapisane znakiem powtórki	!	!	!	!	!LO:TX:a:t=P:problem=klucz i znaki zapisane znakiem powtórki	!	!	!LO:TX:a:t=P:problem=klucz i znaki zapisane znakiem powtórki	!	!	!	!	!	!	!	!	!	!	!	!	!	!	!	!	!	!LO:TX:a:t=P:problem=znaki B- E- A- D- G-	!	!	!	!	!	!	!	!	!	!LO:TX:a:t=No 7. Hymn. (Czartyrdah&colon;)	!
2r	.	2r	.	1r	.	.	1r	.	.	1r	.	.	1r	.	.	1r	.	1r	.	1r	.	1r	.	1r	.	1r	.	1r	.	1r	.	1r	.	1r	.	1r	.	1r	.
4r	p	4r	p	.	.	.	.	.	.	.	.	.	.	.	.	.	.	.	.	.	.	.	.	.	.	.	.	.	.	.	.	.	.	.	.	.	.	.	.
!LO:TX:b:t=arco:color=blue	!	!LO:TX:b:t=arco:color=blue	!	!	!	!	!	!	!	!	!	!	!	!	!	!	!	!	!	!	!	!	!	!	!	!	!	!	!	!	!	!	!	!	!	!	!	!	!
!LO:TX:a:t=Senza sord.:color=blue	!	!LO:TX:a:t=Senza sord.:color=blue	!	!	!	!	!	!	!	!	!	!	!	!	!	!	!	!	!	!	!	!	!	!	!	!	!	!	!	!	!	!	!	!	!	!	!	!	!
4AA-/	.	4AA-/	.	.	.	.	.	.	.	.	.	.	.	.	.	.	.	.	.	.	.	.	.	.	.	.	.	.	.	.	.	.	.	.	.	.	.	.	.
=2	=2	=2	=2	=2	=2	=2	=2	=2	=2	=2	=2	=2	=2	=2	=2	=2	=2	=2	=2	=2	=2	=2	=2	=2	=2	=2	=2	=2	=2	=2	=2	=2	=2	=2	=2	=2	=2	=2	=2
*2\right	*	*	*	*	*	*	*	*	*	*	*	*	*	*	*	*	*	*	*	*	*	*	*	*	*	*	*	*	*	*	*	*	*	*	*	*	*	*	*
2D-^\	.	2D-^/	.	1r	.	.	1r	.	.	1r	.	.	1r	.	.	1r	.	2r	.	1r	.	1r	.	1r	.	1r	.	1r	.	1r	.	1r	.	1r	.	1r	.	1r	.
!	!	!	!	!	!	!	!	!	!	!	!	!	!	!	!	!	!	!LO:TX:a:t=Senza sord.:color=blue	!	!	!	!	!	!	!	!	!	!	!	!	!	!	!	!	!	!	!	!	!
2F\	.	2FF^/	.	.	.	.	.	.	.	.	.	.	.	.	.	.	.	4r	p	.	.	.	.	.	.	.	.	.	.	.	.	.	.	.	.	.	.	.	.
!	!	!	!	!	!	!	!	!	!	!	!	!	!	!	!	!	!	!LO:TX:b:t=arco:color=blue	!	!	!	!	!	!	!	!	!	!	!	!	!	!	!	!	!	!	!	!	!
.	.	.	.	.	.	.	.	.	.	.	.	.	.	.	.	.	.	4d-'/	.	.	.	.	.	.	.	.	.	.	.	.	.	.	.	.	.	.	.	.	.
=3	=3	=3	=3	=3	=3	=3	=3	=3	=3	=3	=3	=3	=3	=3	=3	=3	=3	=3	=3	=3	=3	=3	=3	=3	=3	=3	=3	=3	=3	=3	=3	=3	=3	=3	=3	=3	=3	=3	=3
2.E-\	.	2.EE-^/	.	1r	.	.	1r	.	.	1r	.	.	1r	.	.	1r	.	2g-^/	.	2r	.	1r	.	1r	.	1r	.	1r	.	1r	.	1r	.	1r	.	1r	.	1r	.
!	!	!	!	!	!	!	!	!	!	!	!	!	!	!	!	!	!	!	!	!LO:TX:b:t=arco:color=blue	!	!	!	!	!	!	!	!	!	!	!	!	!	!	!	!	!	!	!
!	!	!	!	!	!	!	!	!	!	!	!	!	!	!	!	!	!	!	!	!LO:TX:a:t=Senza sord.:color=blue	!LO:DY:rj	!	!	!	!	!	!	!	!	!	!	!	!	!	!	!	!	!	!
.	.	.	.	.	.	.	.	.	.	.	.	.	.	.	.	.	.	2B-^/	.	4b-\	p	.	.	.	.	.	.	.	.	.	.	.	.	.	.	.	.	.	.
4D-\	.	4DD-/	.	.	.	.	.	.	.	.	.	.	.	.	.	.	.	.	.	8cc'\L	.	.	.	.	.	.	.	.	.	.	.	.	.	.	.	.	.	.	.
.	.	.	.	.	.	.	.	.	.	.	.	.	.	.	.	.	.	.	.	8dd-'\J	.	.	.	.	.	.	.	.	.	.	.	.	.	.	.	.	.	.	.
=4	=4	=4	=4	=4	=4	=4	=4	=4	=4	=4	=4	=4	=4	=4	=4	=4	=4	=4	=4	=4	=4	=4	=4	=4	=4	=4	=4	=4	=4	=4	=4	=4	=4	=4	=4	=4	=4	=4	=4
*	*	*	*	*	*	*	*	*	*	*	*	*	*	*	*	*	*	*	*	*	*	*	*	*	*	*	*	*	*	*	*	*	*	*^	*	*	*	*	*
*	*	*	*	*	*	*	*	*	*	*	*	*	*	*	*	*	*	*	*	*2\right	*	*	*	*	*	*	*	*	*	*	*	*	*	*	*	*	*	*	*	*
2.C/	.	2CC/	.	1r	.	.	1r	.	.	1r	.	.	1r	.	.	2r	.	4B-/	.	2ee-^\	.	1r	.	1r	.	1r	.	1r	.	1r	.	1r	.	2r	2rEEyy	.	1r	.	1r	.
.	.	.	.	.	.	.	.	.	.	.	.	.	.	.	.	.	p	4r	.	.	.	.	.	.	.	.	.	.	.	.	.	.	.	.	.	.	.	.	.	.
*	*	*	*	*	*	*	*	*	*	*	*	*	*	*	*	*	*	*	*	*	*	*	*	*	*	*	*	*	*	*	*	*	*	*	*2\right	*	*	*	*	*
!	!	!	!	!	!	!	!	!	!	!	!	!	!	!	!	!LO:TX:b:t=arco:color=blue	!	!	!	!	!	!	!	!	!	!	!	!	!	!	!	!	!	!	!	!	!	!	!	!
!	!	!	!	!	!	!	!	!	!	!	!	!	!	!	!	!LO:TX:a:t=Senza sord.:color=blue	!	!	!	!	!	!	!	!	!	!	!	!	!	!	!	!	!	!	!	!LO:DY:color=blue	!	!	!	!
.	.	4C/	.	.	.	.	.	.	.	.	.	.	.	.	.	2E-/	.	2g-^/	.	4g-^/	.	.	.	.	.	.	.	.	.	.	.	.	.	2E-^/	2E-\	p	.	.	.	.
4BB-/	.	4BB-/	.	.	.	.	.	.	.	.	.	.	.	.	.	.	.	.	.	8a-/L	.	.	.	.	.	.	.	.	.	.	.	.	.	.	.	.	.	.	.	.
.	.	.	.	.	.	.	.	.	.	.	.	.	.	.	.	.	.	.	.	8b-/J	.	.	.	.	.	.	.	.	.	.	.	.	.	.	.	.	.	.	.	.
=5	=5	=5	=5	=5	=5	=5	=5	=5	=5	=5	=5	=5	=5	=5	=5	=5	=5	=5	=5	=5	=5	=5	=5	=5	=5	=5	=5	=5	=5	=5	=5	=5	=5	=5	=5	=5	=5	=5	=5	=5
*	*	*	*	*	*	*	*	*	*	*	*	*	*	*	*	*	*	*	*	*	*	*	*	*	*	*	*	*	*	*	*	*^	*	*	*	*	*	*	*	*
1AA-	.	1AA-	.	1r	.	.	1r	.	.	1r	.	.	1r	.	.	2A-^/	.	1e-	.	4.cc^\	.	1r	.	1r	.	1r	.	1r	.	1r	.	2r	2rFyy	.	2A-^/	2A-\	.	1r	.	1r	.
.	.	.	.	.	.	.	.	.	.	.	.	.	.	.	.	.	.	.	.	8b-\	.	.	.	.	.	.	.	.	.	.	.	.	.	.	.	.	.	.	.	.	.
.	.	.	.	.	.	.	.	.	.	.	.	.	.	.	.	[2C^/	.	.	.	4a-/	.	.	.	.	.	.	.	.	.	.	.	4r	4rFyy	.	[2C^/	[>2C\	.	.	.	.	.
!	!	!	!	!	!	!	!	!	!	!	!	!	!	!	!	!	!	!	!	!	!	!	!	!	!	!	!	!	!	!	!	!	!	!LO:DY:color=blue	!	!	!	!	!	!	!
.	.	.	.	.	.	.	.	.	.	.	.	.	.	.	.	.	.	.	.	4g-/	.	.	.	.	.	.	.	.	.	.	.	4c/	4c\	p	.	.	.	.	.	.	.
=6	=6	=6	=6	=6	=6	=6	=6	=6	=6	=6	=6	=6	=6	=6	=6	=6	=6	=6	=6	=6	=6	=6	=6	=6	=6	=6	=6	=6	=6	=6	=6	=6	=6	=6	=6	=6	=6	=6	=6	=6	=6
*	*	*	*	*	*	*	*	*	*	*	*	*	*	*	*	*	*	*	*	*	*	*	*	*	*	*	*	*	*	*	*	*	*2\right	*	*	*	*	*	*	*	*
1AAn	.	1AAn	.	1r	.	.	1r	.	.	1r	.	.	1r	.	.	4C/]	.	1c	.	2.f/	sf	1r	.	1r	.	1r	.	1r	.	1r	.	2f^/	2f\	.	4C/]	4C\]	.	1r	.	1r	.
.	.	.	.	.	.	.	.	.	.	.	.	.	.	.	.	4r	.	.	.	.	.	.	.	.	.	.	.	.	.	.	.	.	.	.	4r	4rEEyy	.	.	.	.	.
!	!	!	!	!	!	!	!	!	!	!	!	!	!	!	!	!LO:TX:b:t=p:problem=brak początku ligatury	!	!	!	!	!	!	!	!	!	!	!	!	!	!	!	!	!	!	!	!	!	!	!	!	!
.	.	.	.	.	.	.	.	.	.	.	.	.	.	.	.	[2F/	sf	.	.	.	.	.	.	.	.	.	.	.	.	.	.	2F^/	2F\	.	2r	2rEEyy	.	.	.	.	.
.	.	.	.	.	.	.	.	.	.	.	.	.	.	.	.	.	.	.	.	4e-/	.	.	.	.	.	.	.	.	.	.	.	.	.	.	.	.	.	.	.	.	.
*	*	*	*	*	*	*	*	*	*	*	*	*	*	*	*	*	*	*	*	*	*	*	*	*	*	*	*	*	*	*	*	*v	*v	*	*	*	*	*	*	*	*
!!LO:PB:g=original
=7	=7	=7	=7	=7	=7	=7	=7	=7	=7	=7	=7	=7	=7	=7	=7	=7	=7	=7	=7	=7	=7	=7	=7	=7	=7	=7	=7	=7	=7	=7	=7	=7	=7	=7	=7	=7	=7	=7	=7	=7
*	*	*	*	*	*	*	*	*	*	*	*	*	*	*	*	*	*	*	*	*	*	*	*	*	*	*	*	*	*	*	*	*	*	*	*	*	*^	*	*	*
*	*	*	*	*2\right	*	*	*	*	*	*	*	*	*	*	*	*	*	*	*	*	*	*	*	*	*	*	*	*	*	*	*	*	*	*	*	*	*	*	*	*	*
!	!	!	!	!	!	!LO:DY:b:color=blue	!	!	!LO:DY:b:color=blue	!	!	!LO:DY:b:color=blue	!	!	!LO:DY:a	!	!	!	!	!	!	!	!	!	!	!	!	!	!	!	!	!	!	!	!	!	!	!	!LO:DY:rj:color=blue	!	!
4.BB-^/	.	4.BB-^/	.	2.D-\	.	pp	2.D-/	.	pp	2.d-/	.	pp	2.d-/	Drżąc	pp	2F/]	.	2.B-/	.	2.d-/	.	1ryy	.	1ryy	.	1ryy	.	1ryy	.	1ryy	.	1ryy	.	1D-	1D-	.	(2.d-/	1rf	p	1ryy	.
!LO:ACC:color=blue	!	!LO:ACC:color=blue	!	!	!	!	!	!	!	!	!	!	!	!	!	!	!	!	!	!	!	!	!	!	!	!	!	!	!	!	!	!	!	!	!	!	!	!	!	!	!
8AA-X/	.	8AA-X/	.	.	.	.	.	.	.	.	.	.	.	.	.	.	.	.	.	.	.	.	.	.	.	.	.	.	.	.	.	.	.	.	.	.	.	.	.	.	.
4GG-/	.	4GG-/	.	.	.	.	.	.	.	.	.	.	.	.	.	2G-/	.	.	.	.	.	.	.	.	.	.	.	.	.	.	.	.	.	.	.	.	.	.	.	.	.
4r	.	4EE-'/	.	4E-\	.	.	4E-/	.	.	4e-/	.	.	4e-/	mu-	.	.	.	4c/	.	4e-/	.	.	.	.	.	.	.	.	.	.	.	.	.	.	.	.	4e-/	.	.	.	.
=8	=8	=8	=8	=8	=8	=8	=8	=8	=8	=8	=8	=8	=8	=8	=8	=8	=8	=8	=8	=8	=8	=8	=8	=8	=8	=8	=8	=8	=8	=8	=8	=8	=8	=8	=8	=8	=8	=8	=8	=8	=8
1AA-	.	1AA-	.	(4F\	.	.	(4F/	.	.	(4f/	.	.	(4f/	-śli-	.	4A-^/	.	2d-/	.	(4f/	.	1ryy	.	1ryy	.	1ryy	.	1ryy	.	1ryy	.	1ryy	.	(4A-/	4A-^\	.	4f/	1rf	.	1ryy	.
.	.	.	.	4G-\)	.	.	4G-/)	.	.	4g-/)	.	.	4g-/)	.	.	8G-/L	.	.	.	4g-/	.	.	.	.	.	.	.	.	.	.	.	.	.	8G-/L	8G-\L	.	4g-/	.	.	.	.
.	.	.	.	.	.	.	.	.	.	.	.	.	.	.	.	8F/J	.	.	.	.	.	.	.	.	.	.	.	.	.	.	.	.	.	8F/J	8F\J	.	.	.	.	.	.
.	.	.	.	4A-\	.	.	4A-/	.	.	4a-/	.	.	4a-/	-min	.	8E-/L	.	4c/	.	4a-/)	.	.	.	.	.	.	.	.	.	.	.	.	.	8E-/L	8E-\L	.	4a-/	.	.	.	.
.	.	.	.	.	.	.	.	.	.	.	.	.	.	.	.	8F/J	.	.	.	.	.	.	.	.	.	.	.	.	.	.	.	.	.	8F/J	8F\J	.	.	.	.	.	.
.	.	.	.	8B-\L	.	.	8B-\L	.	.	8b-\L	.	.	8b-\L	ca-	.	[>4G-^/	.	4e-/@	.	8b-\L	.	.	.	.	.	.	.	.	.	.	.	.	.	[4G-/)	[>4G-^\	.	8b-/L	.	.	.	.
.	.	.	.	8c\J	.	.	8c\J	.	.	8cc\J	.	.	8cc\J	.	.	.	.	.	.	8cc\J	.	.	.	.	.	.	.	.	.	.	.	.	.	.	.	.	8cc/J	.	.	.	.
=9	=9	=9	=9	=9	=9	=9	=9	=9	=9	=9	=9	=9	=9	=9	=9	=9	=9	=9	=9	=9	=9	=9	=9	=9	=9	=9	=9	=9	=9	=9	=9	=9	=9	=9	=9	=9	=9	=9	=9	=9	=9
*	*	*	*	*	*	*	*	*	*	*	*	*	*	*	*	*^	*	*	*	*	*	*	*	*	*	*	*	*	*	*	*	*	*	*	*	*	*	*	*	*	*
*	*	*	*	*	*	*	*2\right	*	*	*2\right	*	*	*2\right	*	*	*	*	*	*	*	*	*	*	*	*	*	*	*	*	*	*	*	*	*	*	*	*	*	*	*	*	*
2BB--/	.	2BB--/	.	2.d-\	.	.	2.d-\	.	.	2.dd-\	.	.	2.dd-\	-łu-	.	2G-/]	2rDyy	.	(4d-/	.	2.dd-\	.	1ryy	.	1ryy	.	1ryy	.	1ryy	.	1ryy	.	1ryy	.	2G-/]	2G-\]	.	2dd-/)	1rf	.	1ryy	.
.	.	.	.	.	.	.	.	.	.	.	.	.	.	.	.	.	.	.	4e-/	.	.	.	.	.	.	.	.	.	.	.	.	.	.	.	.	.	.	.	.	.	.	.
*	*	*	*	*	*	*	*	*	*	*	*	*	*	*	*	*	*2\right	*	*	*	*	*	*	*	*	*	*	*	*	*	*	*	*	*	*	*	*	*	*	*	*	*
!	!	!	!	!	!	!	!	!	!	!	!	!	!	!	!	!	!	!	!	!	!	!	!	!	!	!	!	!	!	!	!	!	!	!	!LO:S:color=blue	!	!	!	!	!	!	!
2AA-/	.	2AA-/	.	.	.	.	.	.	.	.	.	.	.	.	.	2A-/	2D-\	.	4f/)	.	.	.	.	.	.	.	.	.	.	.	.	.	.	.	([2D-/	[>2D-\	.	2rf	.	.	.	.
.	.	.	.	4A-\	.	.	4c-X\	.	.	4a-/	.	.	4cc-X\	-je	.	.	.	.	8g-/L	.	4cc-X\	.	.	.	.	.	.	.	.	.	.	.	.	.	.	.	.	.	.	.	.	.
.	.	.	.	.	.	.	.	.	.	.	.	.	.	.	.	.	.	.	8a-/J	.	.	.	.	.	.	.	.	.	.	.	.	.	.	.	.	.	.	.	.	.	.	.
*	*	*	*	*	*	*	*	*	*	*	*	*	*	*	*	*v	*v	*	*	*	*	*	*	*	*	*	*	*	*	*	*	*	*	*	*	*	*	*v	*v	*	*	*
=10	=10	=10	=10	=10	=10	=10	=10	=10	=10	=10	=10	=10	=10	=10	=10	=10	=10	=10	=10	=10	=10	=10	=10	=10	=10	=10	=10	=10	=10	=10	=10	=10	=10	=10	=10	=10	=10	=10	=10	=10
!LO:ART:color=blue	!	!LO:ART:color=blue	!	!	!	!	!	!	!	!	!	!	!	!	!	!LO:ART:color=blue	!	!LO:ART:color=blue	!	!LO:ART:color=blue	!	!	!	!	!	!	!	!	!	!	!	!	!	!	!	!	!	!	!	!
1GG-^	.	(2GG-^/	.	4A-\	.	.	4c-X\	.	.	4a-/	.	.	4cc-X\	sto-	.	1D-^	.	(4a-^/	.	(4cc-X^\	.	1ryy	.	1ryy	.	1ryy	.	1ryy	.	1ryy	.	1ryy	.	1D-]	1D-]	.	1ryy	.	1ryy	.
.	.	.	.	4G-\	.	.	4B--\	.	.	4g-/	.	.	4b--\	-py	.	.	.	4g-/	.	4b--\	.	.	.	.	.	.	.	.	.	.	.	.	.	.	.	.	.	.	.	.
.	.	4AA-/	.	4F\	.	.	4A-/	.	.	4f/	.	.	4a-/	twej	.	.	.	4f/	.	4a-/	.	.	.	.	.	.	.	.	.	.	.	.	.	.	.	.	.	.	.	.
.	.	4BB--/)	.	4E-\	.	.	4G-/	.	.	4e-/	.	.	4g-/	o-	.	.	.	4e-/)	.	4g-/)	.	.	.	.	.	.	.	.	.	.	.	.	.	.	.	.	.	.	.	.
=11	=11	=11	=11	=11	=11	=11	=11	=11	=11	=11	=11	=11	=11	=11	=11	=11	=11	=11	=11	=11	=11	=11	=11	=11	=11	=11	=11	=11	=11	=11	=11	=11	=11	=11	=11	=11	=11	=11	=11	=11
1D-	.	(4AA-^/	.	2F\	.	.	2A-/	.	.	2f/	.	.	2a-/	-po-	.	4.D-/	.	2f/	.	2a-/	.	1ryy	.	1ryy	.	1ryy	.	1ryy	.	1ryy	.	1ryy	.	4AA-/)	4AA-\	.	1ryy	.	1ryy	.
!	!	!LO:N:acc=n-	!	!	!	!	!	!	!	!	!	!	!	!	!	!	!	!	!	!	!	!	!	!	!	!	!	!	!	!	!	!	!	!	!	!	!	!	!	!
.	.	8BB-X/L	.	.	.	.	.	.	.	.	.	.	.	.	.	.	.	.	.	.	.	.	.	.	.	.	.	.	.	.	.	.	.	4r	4rEEyy	.	.	.	.	.
.	.	8C/J	.	.	.	.	.	.	.	.	.	.	.	.	.	8C/	.	.	.	.	.	.	.	.	.	.	.	.	.	.	.	.	.	.	.	.	.	.	.	.
.	.	8D-/L	.	4D-\	.	.	4F/	.	.	4d-/	.	.	4f/	-ki	.	(8D-/L	.	4d-/	.	4f/	.	.	.	.	.	.	.	.	.	.	.	.	.	2r	2rEEyy	.	.	.	.	.
.	.	8C/	.	.	.	.	.	.	.	.	.	.	.	.	.	8C/	.	.	.	.	.	.	.	.	.	.	.	.	.	.	.	.	.	.	.	.	.	.	.	.
.	.	8D-/	.	4r	.	.	4r	.	.	4r	.	.	4r	.	.	8D-/	.	4r	.	4r	.	.	.	.	.	.	.	.	.	.	.	.	.	.	.	.	.	.	.	.
.	.	8F/J)	.	.	.	.	.	.	.	.	.	.	.	.	.	8F/J)	.	.	.	.	.	.	.	.	.	.	.	.	.	.	.	.	.	.	.	.	.	.	.	.
*	*	*	*	*	*	*	*	*	*	*	*	*	*	*	*	*	*	*	*	*	*	*	*	*	*	*	*	*	*	*	*	*	*	*v	*v	*	*	*	*	*
=12	=12	=12	=12	=12	=12	=12	=12	=12	=12	=12	=12	=12	=12	=12	=12	=12	=12	=12	=12	=12	=12	=12	=12	=12	=12	=12	=12	=12	=12	=12	=12	=12	=12	=12	=12	=12	=12	=12	=12
1F	.	([<1A-	.	1r	.	.	1r	.	.	2a-^/	ma-	.	1r	.	.	[>1D-	.	1r	.	2a-^/	.	1ryy	.	1ryy	.	1ryy	.	1ryy	.	1ryy	.	1ryy	.	1r	.	1ryy	.	1ryy	.
.	.	.	.	.	.	.	.	.	.	4.d-^/	-szcie	.	.	.	.	.	.	.	.	4.d-^/	.	.	.	.	.	.	.	.	.	.	.	.	.	.	.	.	.	.	.
.	.	.	.	.	.	.	.	.	.	8c/	krym-	.	.	.	.	.	.	.	.	8c/	.	.	.	.	.	.	.	.	.	.	.	.	.	.	.	.	.	.	.
=13	=13	=13	=13	=13	=13	=13	=13	=13	=13	=13	=13	=13	=13	=13	=13	=13	=13	=13	=13	=13	=13	=13	=13	=13	=13	=13	=13	=13	=13	=13	=13	=13	=13	=13	=13	=13	=13	=13	=13
*	*	*2\right	*	*	*	*	*	*	*	*	*	*	*	*	*	*	*	*	*	*	*	*	*	*	*	*	*	*	*	*	*	*	*	*	*	*	*	*	*
1G-	.	2A-^\]	.	1r	.	.	2A-^/	masz-	.	(4B-/	-skie-	.	1r	.	.	1D-]	.	1r	.	(4B-/	.	1ryy	.	1ryy	.	1ryy	.	1ryy	.	1ryy	.	1ryy	.	1r	.	1ryy	.	1ryy	.
.	.	.	.	.	.	.	.	.	.	4d-/	.	.	.	.	.	.	.	.	.	4d-/	.	.	.	.	.	.	.	.	.	.	.	.	.	.	.	.	.	.	.
.	.	4G-\	.	.	.	.	4G-/	-cie	.	4g-/)	.	.	.	.	.	.	.	.	.	4g-/	.	.	.	.	.	.	.	.	.	.	.	.	.	.	.	.	.	.	.
.	.	4F\)	.	.	.	.	4F/	krym-	.	4a-/	-go	.	.	.	.	.	.	.	.	4a-/)	.	.	.	.	.	.	.	.	.	.	.	.	.	.	.	.	.	.	.
!!LO:PB:g=original
=14	=14	=14	=14	=14	=14	=14	=14	=14	=14	=14	=14	=14	=14	=14	=14	=14	=14	=14	=14	=14	=14	=14	=14	=14	=14	=14	=14	=14	=14	=14	=14	=14	=14	=14	=14	=14	=14	=14	=14
1G-	.	(4E-\	.	2.G-^\	cza-	.	(4E-/	-skie-	.	2b-/	stat-	.	4.b-/	wiel-	.	(4E-/	.	1r	.	4.b-^/	.	1ryy	.	1ryy	.	1ryy	.	1ryy	.	1ryy	.	1ryy	.	1r	.	1ryy	.	1ryy	.
.	.	4G-\	.	.	.	.	4G-/	.	.	.	.	.	.	.	.	4G-/	.	.	.	.	.	.	.	.	.	.	.	.	.	.	.	.	.	.	.	.	.	.	.
.	.	.	.	.	.	.	.	.	.	.	.	.	8e-/	-ki	.	.	.	.	.	8e-/	.	.	.	.	.	.	.	.	.	.	.	.	.	.	.	.	.	.	.
.	.	4B-\)	.	.	.	.	4B-/)	.	.	4e-/	-ku	.	4e-/	Cza-	.	4B-/)	.	.	.	4e-/	.	.	.	.	.	.	.	.	.	.	.	.	.	.	.	.	.	.	.
.	.	[4B-^\	.	4G-\	-tyr-	.	4d-\	-go	.	4r	.	.	4d-/	-tyr-	.	4E-/	.	.	.	4d-/	.	.	.	.	.	.	.	.	.	.	.	.	.	.	.	.	.	.	.
=15	=15	=15	=15	=15	=15	=15	=15	=15	=15	=15	=15	=15	=15	=15	=15	=15	=15	=15	=15	=15	=15	=15	=15	=15	=15	=15	=15	=15	=15	=15	=15	=15	=15	=15	=15	=15	=15	=15	=15
*	*	*	*	*	*	*	*	*	*	*	*	*	*	*	*	*	*	*	*	*	*	*	*	*	*	*	*	*	*	*	*	*	*	*^	*	*	*	*	*
!	!	!	!LO:HP:color=blue	!	!	!	!	!	!	!	!	!	!	!	!	!	!	!	!	!	!LO:HP:a	!	!	!	!	!	!	!	!	!	!	!	!	!	!	!LO:HP:color=blue	!	!	!	!
[2G-^\	.	(2B-\]	<	[2G-\	-da-	.	2A-/	stat-	.	1r	.	.	(4c/	-da-	.	[2G-^/	.	1r	.	(4c/	<	1ryy	.	1ryy	.	1ryy	.	1ryy	.	1ryy	.	1ryy	.	([2G-^/	2G-\	<	1ryy	.	1ryy	.
!	!	!	!	!	!	!	!	!	!	!	!	!	!	!	!	!	!LO:HP:color=blue	!	!	!	!	!	!	!	!	!	!	!	!	!	!	!	!	!	!	!	!	!	!	!
.	.	.	.	.	.	.	.	.	.	.	.	.	4e-/	.	.	.	<	.	.	4e-/	.	.	.	.	.	.	.	.	.	.	.	.	.	.	.	.	.	.	.	.
8G-\L]	.	4A-\)	.	8G-\L]	.	.	4A-/	-ku	.	.	.	.	4a-/)	-hu!	.	8G-/L]	.	.	.	4a-/)	.	.	.	.	.	.	.	.	.	.	.	.	.	8G-/L]	8G-\L	.	.	.	.	.
8F\	.	.	.	8F\J	.	.	.	.	.	.	.	.	.	.	.	8F/	.	.	.	.	.	.	.	.	.	.	.	.	.	.	.	.	.	8F/	8F\	.	.	.	.	.
!	!	!	!	!	!	!	!	!	!	!	!	!	!	!	!	!	!	!	!	!	!	!	!	!	!	!	!	!	!	!	!	!	!	!	!	!	!	!LO:DY:a	!	!
8E-\	.	4E-\	.	8E-\L	-hu!	.	4r	.	.	.	.	.	4r@	.	.	8E-/	.	.	.	4cc/	[	.	.	.	.	.	.	.	.	.	.	.	.	8E-/	8E-\	.	.	f	.	.
!	!	!	!	!	!	!LO:DY:b	!	!	!	!	!	!	!	!	!	!	!	!	!	!	!	!	!	!	!	!	!	!	!	!	!	!	!	!	!	!	!	!	!	!
8D-\J	.	.	[ ff	8D-\J	.	ff	.	.	ff	.	.	ff	.	.	ff	8D-/J	[ ff	.	ff	.	ff	.	.	.	.	.	.	.	.	.	f	.	f	8D-/J)	8D-\J	[	.	.	.	.
=16	=16	=16	=16	=16	=16	=16	=16	=16	=16	=16	=16	=16	=16	=16	=16	=16	=16	=16	=16	=16	=16	=16	=16	=16	=16	=16	=16	=16	=16	=16	=16	=16	=16	=16	=16	=16	=16	=16	=16	=16
!	!	!	!	!	!	!	!	!	!	!	!	!	!	!	!	!	!	!	!	!	!	!	!	!	!	!	!	!	!	!	!	!	!	!	!	!LO:DY:a	!	!	!	!
4C/	ff	4C 4CC/	.	4C/	.	.	4A-/	.	.	4g-/	.	.	4ee-\	o	.	4A- 4C/	.	4g-/	.	4ee-\	.	1ryy	.	1ryy	.	1ryy	.	1ryy	.	4ee- 4e-/	.	4g-X 4A-X/	.	4C/	4C\	f	4ee- 4g-/	.	1r	.
8.C/L	.	8.C/L	.	8.C/	.	.	8.A-/	.	.	8.g-/	.	.	8.ee-\	mi-	.	8.A-L 8.C/	.	8.g-/L	.	8.ee-\L	.	.	.	.	.	.	.	.	.	8.ee-L 8.e-/	.	8.g-L 8.A-/	.	8.C/L	8.C\L	.	8.ee-L 8.g-/	.	.	.
16C/Jk	.	16C/Jk	.	16C/	.	.	16A-/	.	.	16g-/	.	.	16ee-\	-na-	.	16A-Jk 16C/	.	16g-/Jk	.	16ee-\Jk	.	.	.	.	.	.	.	.	.	16ee-Jk 16e-/	.	16g-Jk 16A-/	.	16C/Jk	16C\Jk	.	16ee-Jk 16g-/	.	.	.
4C/	.	4C/	.	4C/	.	.	4A-/	.	.	4g-/	.	.	4ee-\	-re-	.	4A- 4C/	.	4g-/	.	4ee-\	.	.	.	.	.	.	.	.	.	4ee- 4e-/	.	4g- 4A-/	.	4C/	4C\	.	4ee- 4g-/	.	.	.
4D-/	.	4D-/	.	4D-/	.	.	4A-/	.	.	4g-/	.	.	4dd-\	-cie	.	4A-/	.	4b- 4g-/	.	4dd- 4e-\	.	.	.	.	.	.	.	.	.	4ee- 4b-/	.	4g- 4A-/	.	4D-/	4D-\	.	4dd- 4g-/	.	.	.
=17	=17	=17	=17	=17	=17	=17	=17	=17	=17	=17	=17	=17	=17	=17	=17	=17	=17	=17	=17	=17	=17	=17	=17	=17	=17	=17	=17	=17	=17	=17	=17	=17	=17	=17	=17	=17	=17	=17	=17	=17
!	!	!LO:ART:color=blue	!	!	!	!	!	!	!	!	!	!	!	!	!	!	!	!	!	!	!	!	!	!	!	!	!	!	!	!	!	!LO:ART:color=blue	!	!	!LO:ART:color=blue	!	!LO:ART:color=blue	!	!	!
!	!	!	!	!	!	!	!	!	!	!	!	!	!	!	!	!	!	!	!	!	!	!	!	!	!	!	!	!	!	!	!	!	!	!LO:S:color=blue	!LO:S:color=blue	!	!	!	!	!
2E-\	.	2E-^<\	.	2E-^\	.	.	2A-^/	.	.	2g-^/	.	.	2dd-^\	świa-	.	2A-^/	.	2g-^/	.	2dd- 2e-^\	.	1ryy	.	1ryy	.	1ryy	.	1ryy	.	4ee- 4e-/	.	2e-X 2A-X^/	.	(2E-^/	(2E-^\	.	(>2dd- 2g-^/	.	1r	.
.	.	.	.	.	.	.	.	.	.	.	.	.	.	.	.	.	.	.	.	.	.	.	.	.	.	.	.	.	.	4r	.	.	.	.	.	.	.	.	.	.
2r	.	8A-\	.	8E-\	.	.	8A-/	.	.	8e-/	.	.	8cc\	-ta	.	8A-/	.	8e-/	.	8cc\	.	.	.	.	.	.	.	.	.	2r	.	4e- 4A-/	.	4A-/)	4A-\)	.	4cc 4g-/)	.	.	.
.	.	8r	.	8r	.	.	8r	.	.	8r	.	.	8r	.	.	8r	.	8r	.	8r	.	.	.	.	.	.	.	.	.	.	.	.	.	.	.	.	.	.	.	.
!	!	!	!LO:DY:color=blue	!	!	!LO:DY:a:rj	!	!	!LO:DY:a:rj	!	!	!LO:DY:a:rj	!	!	!LO:DY:a:rj	!	!LO:DY:rj	!	!	!	!	!	!	!	!	!	!	!	!	!	!	!	!	!	!	!	!	!	!	!
.	.	4G-\	p	4G-\	.	p	4A-/	.	p	4e-/	.	p	4cc\	o	p	4A-/	p	4e-/	p	4cc\	p	.	.	.	.	.	.	.	.	.	.	4r	.	4rF	4rEEyy	.	4r	.	.	.
*	*	*	*	*	*	*	*	*	*	*	*	*	*	*	*	*	*	*	*	*	*	*	*	*	*	*	*	*	*	*	*	*	*	*v	*v	*	*	*	*	*
=18	=18	=18	=18	=18	=18	=18	=18	=18	=18	=18	=18	=18	=18	=18	=18	=18	=18	=18	=18	=18	=18	=18	=18	=18	=18	=18	=18	=18	=18	=18	=18	=18	=18	=18	=18	=18	=18	=18	=18
1r	.	2F\	>	2F\	.	.	2A-/	.	.	2d-/	.	.	2dd-\	gór	.	2A-/	>	2d-/	>	2dd-\	>	1ryy	.	1ryy	.	1ryy	.	1ryy	.	1r	.	1r	.	1r	.	1r	.	1ryy	.
.	.	4D-\	.	4D-\	.	.	4A-/	.	.	4f/	.	.	4a-/	pa-	.	4A-/	.	4f/	.	4a-/	.	.	.	.	.	.	.	.	.	.	.	.	.	.	.	.	.	.	.
.	.	4F\	.	4F\	.	.	4A-/	.	.	4d-/	.	.	4f/	-dy-	.	4A-/	.	4d-/	.	4f/	]]	.	.	.	.	.	.	.	.	.	.	.	.	.	.	.	.	.	.
=19	=19	=19	=19	=19	=19	=19	=19	=19	=19	=19	=19	=19	=19	=19	=19	=19	=19	=19	=19	=19	=19	=19	=19	=19	=19	=19	=19	=19	=19	=19	=19	=19	=19	=19	=19	=19	=19	=19	=19
1r	.	2E-\	]	2E-\	.	.	2G-/	.	.	2d-/	.	.	2b-/	-sza-	.	2G-/	.	2d-/	.	2b-/	.	1ryy	.	1ryy	.	1ryy	.	1ryy	.	1r	.	1r	.	1r	.	1r	.	1ryy	.
.	.	.	.	.	.	.	.	.	.	.	.	.	.	.	.	.	]	.	.	.	.	.	.	.	.	.	.	.	.	.	.	.	.	.	.	.	.	.	.
.	.	4AA-/	.	4AA-/	.	.	4E-/	.	.	4c/	.	.	4a-/	-chu!	.	4E-/	.	4c/	]	4a-/	.	.	.	.	.	.	.	.	.	.	.	.	.	.	.	.	.	.	.
.	.	4r	.	4r	.	.	4r	.	.	4r	.	.	4r	.	.	4r@	.	4r	.	4r	.	.	.	.	.	.	.	.	.	.	.	.	.	.	.	.	.	.	.
!!LO:PB:g=original
=20	=20	=20	=20	=20	=20	=20	=20	=20	=20	=20	=20	=20	=20	=20	=20	=20	=20	=20	=20	=20	=20	=20	=20	=20	=20	=20	=20	=20	=20	=20	=20	=20	=20	=20	=20	=20	=20	=20	=20
*	*	*	*	*	*	*	*	*	*	*	*	*	*	*	*	*	*	*	*	*	*	*	*	*	*	*	*	*	*	*	*	*	*	*^	*	*	*	*	*
*	*	*	*	*	*	*	*	*	*	*	*	*	*	*	*	*	*	*	*	*	*	*	*	*	*	*	*	*	*	*2\right	*	*	*	*	*	*	*	*	*	*
!	!	!	!	!	!	!LO:DY:rj	!	!	!LO:DY:rj	!	!	!LO:DY:rj	!	!	!LO:DY:rj	!	!	!	!	!	!	!	!	!	!LO:DY:rj	!	!	!	!	!	!LO:DY:rj:t=pp.	!	!LO:DY:rj:t=pp.	!	!	!LO:DY:rj:t=pp.	!	!LO:DY:rj:t=pp.	!	!
1r	.	1r	.	2D-\	.	mf	2d- 2A-\	.	mf	2f/	nad	mf	2a-/	Ty	mf	1r	.	1r	.	1r	.	1ryy	.	2D-/	pp	1ryy	.	1ryy	.	2ff 2dd-X\	pp	2a-X 2A-X/	pp	2D-/	2D-\	pp	2a- 2A-/	pp	1r	.
.	.	.	.	4.A- 4.AA-\	.	.	4.e- 4.c\	.	.	4.g-/	po-	.	4.a-/	nad	.	.	.	.	.	.	.	.	.	2AA-/	.	.	.	.	.	4.gg-X 4.ee-\	.	4.a- 4.A-/	.	4.AA-/	4.AA-\	.	4.a- 4.c/	.	.	.
.	.	.	.	8A- 8AA-\	.	.	8e- 8c\	.	.	8g-/	-ziom	.	8a-/	po-	.	.	.	.	.	.	pp	.	.	.	.	.	.	.	.	8gg- 8ee-\	.	8a- 8A-/	.	8AA-/	8AA-\	.	8a- 8c/	.	.	.
=21	=21	=21	=21	=21	=21	=21	=21	=21	=21	=21	=21	=21	=21	=21	=21	=21	=21	=21	=21	=21	=21	=21	=21	=21	=21	=21	=21	=21	=21	=21	=21	=21	=21	=21	=21	=21	=21	=21	=21	=21
*	*	*	*	*	*	*	*^	*	*	*	*	*	*	*	*	*	*	*	*	*	*	*	*	*	*	*	*	*	*	*	*	*	*	*	*	*	*	*	*	*
1r	.	1r	.	4A- 4D-\	.	.	4d-/	4d-\	.	.	4f/	skał	.	4a-/	-zio-	.	1r	.	1r	.	(4a-\	<	1ryy	.	[2DD-/	.	1ryy	.	1ryy	.	[2ff [2dd-X\	.	[2a-X [2A-X/	.	[2D-/	[>2D-\	.	[2a- [2d-/	.	1r	.
.	.	.	.	4r	.	.	4r	4rCyy	.	.	4r	.	.	4dd-\	-mu	.	.	.	.	.	4dd-\	.	.	.	.	.	.	.	.	.	.	.	.	.	.	.	.	.	.	.	.
.	.	.	.	2r	.	.	2r	2rCyy	.	.	2r	.	.	4ff\	ska-	.	.	.	.	.	4ff\	[	.	.	8DD-/]	.	.	.	.	.	8ff] 8dd-\]	.	8a-] 8A-/]	.	8D-/]	8D-\]	.	8a-] 8d-/]	.	.	.
.	.	.	.	.	.	.	.	.	.	.	.	.	.	.	.	.	.	.	.	.	.	.	.	.	8r	.	.	.	.	.	8r	.	8r	.	8r	8rEEyy	.	8r	.	.	.
.	.	.	.	.	.	.	.	.	.	.	.	.	.	4ee-\	-ły	.	.	.	.	.	4ee-\	>	.	.	4r	.	.	.	.	.	4r	.	4r	.	4r	4rEEyy	.	4r	.	.	.
*	*	*	*	*	*	*	*v	*v	*	*	*	*	*	*	*	*	*	*	*	*	*	*	*	*	*	*	*	*	*	*	*	*	*	*	*v	*v	*	*	*	*	*
=22	=22	=22	=22	=22	=22	=22	=22	=22	=22	=22	=22	=22	=22	=22	=22	=22	=22	=22	=22	=22	=22	=22	=22	=22	=22	=22	=22	=22	=22	=22	=22	=22	=22	=22	=22	=22	=22	=22	=22
!	!	!	!	!	!	!	!	!	!	!	!	!	!	!	!	!	!LO:DY:rj:color=blue	!	!	!	!	!	!	!	!	!	!	!	!	!	!	!	!	!	!	!	!	!	!
1r	.	1r	.	1r	.	.	1r	.	.	1r	.	.	(4dd-\	u-	.	(4F/	pp <	1r	.	4dd-\	.	1ryy	.	1r	.	1ryy	.	1ryy	.	1r	.	1r	.	1r	.	1r	.	1ryy	.
.	.	.	.	.	.	.	.	.	.	.	.	.	4a-/)	-ciekł-	.	4A-/	[	.	.	4a-/	.	.	.	.	.	.	.	.	.	.	.	.	.	.	.	.	.	.	.
.	.	.	.	.	.	.	.	.	.	.	.	.	4f/	-szy	.	4d-\	>	.	.	4f/	.	.	.	.	.	.	.	.	.	.	.	.	.	.	.	.	.	.	.
.	.	.	p	.	.	.	.	.	.	.	.	.	4g-/	w o-	.	4B-\)	]	.	pp	4g-/)	]	.	.	.	.	.	.	.	.	.	.	.	.	.	.	.	.	.	.
=23	=23	=23	=23	=23	=23	=23	=23	=23	=23	=23	=23	=23	=23	=23	=23	=23	=23	=23	=23	=23	=23	=23	=23	=23	=23	=23	=23	=23	=23	=23	=23	=23	=23	=23	=23	=23	=23	=23	=23
!	!	!	!LO:HP:a	!	!	!	!	!	!	!	!	!	!	!	!	!	!	!	!	!	!	!	!	!	!	!	!	!	!	!	!	!	!	!	!	!	!	!	!
1r	.	(4D-/	<	1r	.	.	1r	.	.	1r	.	.	2b-/	-bło-	.	[>1A-	.	2f/	.	(2b-/	.	1ryy	.	1r	.	1ryy	.	1ryy	.	1r	.	1r	.	1r	.	1r	.	1ryy	.
.	.	4AA-/	.	.	.	.	.	.	.	.	.	.	.	.	.	.	.	.	.	.	.	.	.	.	.	.	.	.	.	.	.	.	.	.	.	.	.	.	.
!	!	!	!LO:HP:a	!	!	!	!	!	!	!	!	!	!	!	!	!	!	!	!	!	!	!	!	!	!	!	!	!	!	!	!	!	!	!	!	!	!	!	!
.	.	4FF/	[ >	.	.	.	.	.	.	.	.	.	4a-/	-ki	.	.	.	4d-/	.	4a-/)	.	.	.	.	.	.	.	.	.	.	.	.	.	.	.	.	.	.	.
!LO:TX:b:t=pizzi	!	!	!	!	!	!	!	!	!	!	!	!	!	!	!	!	!	!	!	!	!	!	!	!	!	!	!	!	!	!	!LO:DY:t=p.	!	!	!	!	!	!	!	!
.	.	4GG-/)	]]	.	.	.	.	.	.	.	.	.	4r	.	.	.	.	4e-/	.	4r	.	.	.	.	p	.	.	.	.	.	p	.	p	.	p	.	p	.	.
.	.	.	.	.	.	pp	.	.	pp	.	.	pp	.	.	pp	.	.	.	.	.	.	.	.	.	.	.	.	.	.	.	.	.	.	.	.	.	.	.	.
=24	=24	=24	=24	=24	=24	=24	=24	=24	=24	=24	=24	=24	=24	=24	=24	=24	=24	=24	=24	=24	=24	=24	=24	=24	=24	=24	=24	=24	=24	=24	=24	=24	=24	=24	=24	=24	=24	=24	=24
*	*	*	*	*^	*	*	*	*	*	*	*	*	*	*	*	*	*	*	*	*	*	*	*	*	*	*	*	*	*	*	*	*^	*	*^	*	*^	*	*	*
*	*	*	*	*	*	*	*	*	*	*	*	*	*	*	*	*	*	*	*	*	*	*	*	*	*	*	*	*	*	*	*	*	*	*	*	*	*	*	*	*2\right	*	*	*
4D-\	.	4AA-'/	.	2D-/	2D-\	.	.	2A-/	.	.	2f/	u	.	2a-/	sie-	.	4A-'/]	.	4f'/	.	1r	.	1ryy	.	2DD-/	.	1ryy	.	1ryy	.	2ff 2dd-X\	.	2A-X/	2A-\	.	2D-/	2D-\	.	2a-/	2a-\	.	1ryy	.
4r	.	4r	.	.	.	.	.	.	.	.	.	.	.	.	.	.	4r	.	4r	.	.	.	.	.	.	.	.	.	.	.	.	.	.	.	.	.	.	.	.	.	.	.	.
2r	.	2r	.	4.D- 4.GG-/	2rEEyy	.	.	4.G-/	.	.	4.f-X/	nie-	.	2b-/	-dzisz	.	2r	.	2r	.	.	.	.	.	2GG-/	.	.	.	.	.	4.ff-X 4.dd-\	.	4.B- 4.G-X/	2rFyy	.	4.GG-/	4.GG-\	.	4.b-/	4.b-\	.	.	.
.	.	.	.	8D- 8GG-/	.	.	.	8G-/	.	.	8f-/	-bios	.	.	.	.	.	.	.	.	.	pp	.	.	.	.	.	.	.	.	8ff- 8dd-\	.	8B- 8G-/	.	.	8GG-/	8GG-\	.	8b-/	8b-\	.	.	.
*	*	*	*	*	*	*	*	*	*	*	*	*	*	*	*	*	*	*	*	*	*	*	*	*	*	*	*	*	*	*	*	*	*v	*v	*	*	*	*	*	*	*	*	*
=25	=25	=25	=25	=25	=25	=25	=25	=25	=25	=25	=25	=25	=25	=25	=25	=25	=25	=25	=25	=25	=25	=25	=25	=25	=25	=25	=25	=25	=25	=25	=25	=25	=25	=25	=25	=25	=25	=25	=25	=25	=25	=25
*	*	*	*	*	*	*	*	*	*	*	*	*	*	*	*	*	*	*	*	*	*	*	*	*	*	*	*	*	*	*	*^	*	*	*	*	*	*	*	*	*	*	*
1r	.	1r	.	2C-X/	2C-\	.	.	2G-/	.	.	2e-/	bram	.	(4cc-X\	so-	.	1r	.	1r	.	(4e-/	<	1ryy	.	[2CC-X/	.	1ryy	.	1ryy	.	[2ee-/	[>2ee-\	.	[2c-X [2G-X/	.	[2C-X/	[>2C-\	.	[2cc-X/	[>2cc-\	.	1ryy	.
.	.	.	.	.	.	.	.	.	.	.	.	.	.	4g-/)	.	.	.	.	.	.	4g-/	.	.	.	.	.	.	.	.	.	.	.	.	.	.	.	.	.	.	.	.	.	.
.	.	.	.	2r	2rEEyy	.	.	2r	.	.	2r	.	.	4ee-\	-bie	.	.	.	.	.	4ee-\	.	.	.	8CC-/]	.	.	.	.	.	8ee-/]	8ee-\]	.	8c-] 8G-/]	.	8C-/]	8C-\]	.	8cc-/]	8cc-\]	.	.	.
.	.	.	.	.	.	.	.	.	.	.	.	.	.	.	.	.	.	.	.	.	.	.	.	.	8r	.	.	.	.	.	8r	8reyy	.	8r	.	8r	8rEEyy	.	8r	8rByy	.	.	.
.	.	.	.	.	.	.	.	.	.	.	.	.	.	4dd-\	pod	.	.	pp	.	.	4dd-\	[[	.	.	4r	.	.	.	.	.	4r	4reyy	.	4r	.	4r	4rEEyy	.	4r	4rByy	.	.	.
*	*	*	*	*	*	*	*	*	*	*	*	*	*	*	*	*	*	*	*	*	*	*	*	*	*	*	*	*	*	*	*	*	*	*	*	*v	*v	*	*	*	*	*	*
*	*	*	*	*v	*v	*	*	*	*	*	*	*	*	*	*	*	*	*	*	*	*	*	*	*	*	*	*	*	*	*	*v	*v	*	*	*	*	*	*v	*v	*	*	*
=26	=26	=26	=26	=26	=26	=26	=26	=26	=26	=26	=26	=26	=26	=26	=26	=26	=26	=26	=26	=26	=26	=26	=26	=26	=26	=26	=26	=26	=26	=26	=26	=26	=26	=26	=26	=26	=26	=26	=26
!	!	!	!	!	!	!	!	!	!	!	!	!	!	!	!	!	!LO:HP:a	!	!	!	!	!	!	!	!	!	!	!	!	!	!	!	!	!	!	!	!	!	!
1r	.	1r	.	1r	.	.	1r	.	.	1r	.	.	(4cc-X\	bra-	.	(4E-/	<	1r	.	4cc-X\	>	1ryy	.	1r	.	1ryy	.	1ryy	.	1r	.	1r	.	1r	.	1r	.	1ryy	.
.	.	.	.	.	.	.	.	.	.	.	.	.	4g-/)	.	.	4G-/	.	.	.	4g-/	.	.	.	.	.	.	.	.	.	.	.	.	.	.	.	.	.	.	.
!	!	!	!	!	!	!	!	!	!	!	!	!	!	!	!	!	!LO:HP:a	!	!	!	!	!	!	!	!	!	!	!	!	!	!	!	!	!	!	!	!	!	!
.	.	.	.	.	.	.	.	.	.	.	.	.	(4e-/	-mą	.	4c-X/	[ >	.	.	4e-/	.	.	.	.	.	.	.	.	.	.	.	.	.	.	.	.	.	.	.
.	.	.	p	.	.	.	.	.	.	.	.	.	4f-X/)	.	.	4A-/	]]	.	pp	4f-X/	]	.	.	.	.	.	.	.	.	.	.	.	.	.	.	.	.	.	.
=27	=27	=27	=27	=27	=27	=27	=27	=27	=27	=27	=27	=27	=27	=27	=27	=27	=27	=27	=27	=27	=27	=27	=27	=27	=27	=27	=27	=27	=27	=27	=27	=27	=27	=27	=27	=27	=27	=27	=27
1r	.	(4G-\	<	1r	.	.	1r	.	.	1r	.	.	2g-/	nie-	.	2G-/)	.	2e-/	.	2g-/	.	1ryy	.	1r	.	1ryy	.	1ryy	.	1r	.	1r	.	1r	.	1r	.	1ryy	.
.	.	4E-\	[	.	.	.	.	.	.	.	.	.	.	.	.	.	.	.	.	.	.	.	.	.	.	.	.	.	.	.	.	.	.	.	.	.	.	.	.
.	.	4C-X/	>	.	.	.	.	.	.	.	.	.	2a-/	-bios	.	2A-/	.	2e-/	.	2a-/)	.	.	.	.	.	.	.	.	.	.	.	.	.	.	.	.	.	.	.
.	.	4AA-/)	]]	.	.	.	.	.	.	.	.	.	.	.	.	.	.	.	.	.	.	.	.	.	.	.	.	.	.	.	.	.	.	.	.	.	.	.	.
!!LO:PB:g=original
=28	=28	=28	=28	=28	=28	=28	=28	=28	=28	=28	=28	=28	=28	=28	=28	=28	=28	=28	=28	=28	=28	=28	=28	=28	=28	=28	=28	=28	=28	=28	=28	=28	=28	=28	=28	=28	=28	=28	=28
*	*	*	*	*	*	*	*	*	*	*	*	*	*	*	*	*	*	*	*	*	*	*	*	*	*	*	*	*	*	*	*	*	*	*^	*	*^	*	*	*
!	!	!	!	!	!	!LO:DY:rj	!	!	!LO:DY:rj	!	!	!LO:DY:rj	!	!	!LO:DY:rj	!	!	!	!	!	!	!	!	!	!	!	!	!	!	!	!	!	!	!	!	!LO:DY:rj	!LO:TX:t=P:problem=klarnety i fagoty zapisane o jedną pięciolinię wyżej	!	!LO:DY:rj	!	!
1r	.	4GG-/	.	2G-\	.	mf	2r	.	mf	2e-/	.	mf	2b-/	jak	mf	4E-/	.	4e-/	.	4b-\	.	1ryy	.	1ryy	.	1ryy	.	1ryy	.	1ryy	.	1ryy	.	[1B-	[>1G-	p	2b-^</	1rf	p	1ryy	.
.	.	4r	.	.	.	.	.	.	.	.	.	.	.	.	.	4r	.	4r	.	4r	.	.	.	.	.	.	.	.	.	.	.	.	.	.	.	.	.	.	.	.	.
.	.	2r	.	2G-\	.	.	4.B-\	jak	.	2e-/	.	.	2e-/	wy-	.	2r	.	2r	.	2r	.	.	.	.	.	.	.	.	.	.	.	.	.	.	.	.	2e-^</	.	.	.	.
.	.	.	.	.	.	.	8B-\	wy-	.	.	.	.	.	.	.	.	.	.	.	.	.	.	.	.	.	.	.	.	.	.	.	.	.	.	.	.	.	.	.	.	.
=29	=29	=29	=29	=29	=29	=29	=29	=29	=29	=29	=29	=29	=29	=29	=29	=29	=29	=29	=29	=29	=29	=29	=29	=29	=29	=29	=29	=29	=29	=29	=29	=29	=29	=29	=29	=29	=29	=29	=29	=29	=29
!	!	!	!	!LO:ART:color=blue	!	!	!	!	!LO:HP:b	!LO:ART:color=blue	!	!	!	!	!	!	!	!	!	!	!	!	!	!	!	!	!	!	!	!	!	!	!	!	!	!	!	!	!	!	!
1r	.	1r	.	2.G-^<\	.	.	(4B-\	-so-	<	2.e-^>/	.	.	2.ee-^\	-so-	.	1r	.	1r	.	1r	.	1ryy	.	1ryy	.	1ryy	.	1ryy	.	1ryy	.	1ryy	.	1B-^]	1G-]	.	(2.ee-^/	1e-	.	1ryy	.
.	.	.	.	.	.	.	4e-\	.	.	.	.	.	.	.	.	.	.	.	.	.	.	.	.	.	.	.	.	.	.	.	.	.	.	.	.	.	.	.	.	.	.
.	.	.	.	.	.	.	4g-\)	.	[	.	.	.	.	.	.	.	.	.	.	.	.	.	.	.	.	.	.	.	.	.	.	.	.	.	.	.	.	.	.	.	.
.	.	.	.	4G-\	.	.	4f\	-ki	.	4B-/	.	.	4dd-\	-ki	.	.	.	.	.	.	.	.	.	.	.	.	.	.	.	.	.	.	.	.	.	.	4dd-/)	.	.	.	.
=30	=30	=30	=30	=30	=30	=30	=30	=30	=30	=30	=30	=30	=30	=30	=30	=30	=30	=30	=30	=30	=30	=30	=30	=30	=30	=30	=30	=30	=30	=30	=30	=30	=30	=30	=30	=30	=30	=30	=30	=30	=30
!	!	!	!	!	!	!	!	!	!	!	!	!	!	!	!	!	!	!	!	!	!	!	!	!	!	!	!	!	!	!	!	!	!	!LO:S:color=blue	!	!	!	!	!	!	!
1r	.	1r	.	4G-\	.	.	4f\	.	.	4.e-/	.	.	4dd-\	Ga-	.	1r	.	1r	.	1r	.	1ryy	.	1ryy	.	1ryy	.	1ryy	.	1ryy	.	1ryy	.	(2.A-/	1G-	.	(<4dd-/	2e-\	.	1ryy	.
.	.	.	.	4G-\	.	.	4e-\	.	.	.	.	.	4cc\	-bryel	.	.	.	.	.	.	.	.	.	.	.	.	.	.	.	.	.	.	.	.	.	.	4cc/)	.	.	.	.
.	.	.	.	.	.	.	.	.	.	8e-/	.	.	.	.	.	.	.	.	.	.	.	.	.	.	.	.	.	.	.	.	.	.	.	.	.	.	.	.	.	.	.
.	.	.	.	4.G-\	.	.	4.e-\	.	.	4e-/	.	.	4.cc\	pil-	.	.	.	.	.	.	.	.	.	.	.	.	.	.	.	.	.	.	.	.	.	.	4.cc/	4.e-\	.	.	.
.	.	.	.	.	.	.	.	.	.	4e-/	.	.	.	.	.	.	.	.	.	.	.	.	.	.	.	.	.	.	.	.	.	.	.	4B-/)	.	.	.	.	.	.	.
.	.	.	.	8G-\	.	.	8d-\	.	.	.	.	.	8b-\	-nu-	.	.	p	.	.	.	.	.	.	.	.	.	.	.	.	.	.	.	.	.	.	.	8b-/	8d-\	.	.	.
*	*	*	*	*	*	*	*	*	*	*	*	*	*	*	*	*	*	*	*	*	*	*	*	*	*	*	*	*	*	*	*	*	*	*	*	*	*v	*v	*	*	*
=31	=31	=31	=31	=31	=31	=31	=31	=31	=31	=31	=31	=31	=31	=31	=31	=31	=31	=31	=31	=31	=31	=31	=31	=31	=31	=31	=31	=31	=31	=31	=31	=31	=31	=31	=31	=31	=31	=31	=31	=31
1r	.	1r	.	(4G-\	.	.	2d-\	.	.	2e-/	.	.	2b-\	-ją-	.	4r	.	1r	.	2r	.	1ryy	.	1ryy	.	1ryy	.	1ryy	.	1ryy	.	1ryy	.	(4G-/	4G-\	.	(2b- (2d-/	.	1ryy	.
.	.	.	.	8F\L	.	.	.	.	.	.	.	.	.	.	.	(8F^/L	.	.	.	.	.	.	.	.	.	.	.	.	.	.	.	.	.	8F/L	4r	.	.	.	.	.
.	.	.	.	8G-\J)	.	.	.	.	.	.	.	.	.	.	.	8G-/J	.	.	.	.	.	.	.	.	.	.	.	.	.	.	.	.	.	8G-/J	.	.	.	.	.	.
!LO:TX:b:i:t=dolce	!	!LO:TX:b:i:t=dolce	!	!	!	!	!	!	!	!	!	!	!	!	!	!	!	!LO:TX:b:i:t=dolce	!	!	!	!	!	!	!	!	!	!	!	!	!	!	!	!	!	!	!	!	!	!
.	.	.	.	(4A-\	.	.	4c\	.	.	4e-/	.	.	4a-\	-cy	.	4A-/	.	.	.	2a-/	.	.	.	.	.	.	.	.	.	.	.	.	.	4A-/	2r	.	4a- 4c/))	.	.	.
!	!	!	!	!	!	!	!	!	!	!	!	!	!	!	!LO:DY:b	!LO:TX:b:i:t=dolce	!	!	!	!	!	!	!	!	!	!	!	!	!	!	!	!	!	!	!	!	!	!	!	!
.	.	.	.	4G-\)	.	.	4r	.	.	4r	.	.	4r	.	p	4G-/)	.	.	.	.	.	.	.	.	.	.	.	.	.	.	.	.	.	4G-/	.	.	4r	.	.	.
=32	=32	=32	=32	=32	=32	=32	=32	=32	=32	=32	=32	=32	=32	=32	=32	=32	=32	=32	=32	=32	=32	=32	=32	=32	=32	=32	=32	=32	=32	=32	=32	=32	=32	=32	=32	=32	=32	=32	=32	=32
*	*	*	*	*	*	*	*	*	*	*	*	*	*	*	*	*2\right	*	*	*	*	*	*	*	*	*	*	*	*	*	*	*	*	*	*	*	*	*	*	*	*
!LO:TX:b:t=arco:color=blue	!	!	!LO:DY:t=p.	!	!	!LO:DY:rj	!	!	!	!	!	!	!	!	!	!	!	!	!	!LO:TX:b:i:t=dolce	!	!	!	!	!	!	!	!	!	!	!	!	!	!	!	!	!	!	!	!
(2F\	p	(2F\	p	2F\	.	p	2A-/	.	p	2d-/	.	p	2dd-\	e-	.	(<2d-\	.	(2a-/	.	(2dd-\	.	1ryy	.	1ryy	.	1ryy	.	1ryy	.	1ryy	.	1ryy	.	4F/)	1r	.	1r	.	1ryy	.
.	.	.	.	.	.	.	.	.	.	.	.	.	.	.	.	.	.	.	.	.	.	.	.	.	.	.	.	.	.	.	.	.	.	4r	.	.	.	.	.	.
2AA-/	.	2AA-/	.	2AA-/	.	.	2d-\	.	.	2d-/	.	.	2f/	-deń-	.	2A-/	.	2d-/	.	2f/	.	.	.	.	.	.	.	.	.	.	.	.	.	2r	.	.	.	.	.	.
*	*	*	*	*	*	*	*	*	*	*	*	*	*	*	*	*	*	*	*	*	*	*	*	*	*	*	*	*	*	*	*	*	*	*v	*v	*	*	*	*	*
=33	=33	=33	=33	=33	=33	=33	=33	=33	=33	=33	=33	=33	=33	=33	=33	=33	=33	=33	=33	=33	=33	=33	=33	=33	=33	=33	=33	=33	=33	=33	=33	=33	=33	=33	=33	=33	=33	=33	=33
2D-\	.	2D-\)	.	2D-/	.	.	2f\	.	.	2d-/	.	.	2a-/	-skie-	.	2F/	.	2f/	.	2a-/	.	1ryy	.	1ryy	.	1ryy	.	1ryy	.	1ryy	.	1ryy	.	1r	.	1ryy	.	1ryy	.
2FF/)	.	(8FF/L	.	2F 2FF/	.	.	2A-/	.	.	2d-/	.	.	2d-/	-go	.	2A-/)	.	2A-/)	.	2d-/)	.	.	.	.	.	.	.	.	.	.	.	.	.	.	.	.	.	.	.
.	.	8AA-/	.	.	.	.	.	.	.	.	.	.	.	.	.	.	.	.	.	.	.	.	.	.	.	.	.	.	.	.	.	.	.	.	.	.	.	.	.
.	.	8D-/	.	.	.	.	.	.	.	.	.	.	.	.	.	.	.	.	.	.	.	.	.	.	.	.	.	.	.	.	.	.	.	.	.	.	.	.	.
.	.	8F/J)	.	.	.	.	.	.	.	.	.	.	.	.	.	.	.	.	.	.	.	.	.	.	.	.	.	.	.	.	.	.	.	.	.	.	.	.	.
=34	=34	=34	=34	=34	=34	=34	=34	=34	=34	=34	=34	=34	=34	=34	=34	=34	=34	=34	=34	=34	=34	=34	=34	=34	=34	=34	=34	=34	=34	=34	=34	=34	=34	=34	=34	=34	=34	=34	=34
2.A-^\	.	4.A-^\	.	2.A- 2.AA-/	.	.	4.A-/	.	.	4.d-/	.	.	(4f/	gma-	.	4.A-^/	.	2.d-/	.	(4f/	.	1ryy	.	1ryy	.	1ryy	.	1ryy	.	1ryy	.	1ryy	.	1r	.	1ryy	.	1ryy	.
.	.	.	.	.	.	.	.	.	.	.	.	.	4g-/	.	.	.	.	.	.	4g-/	.	.	.	.	.	.	.	.	.	.	.	.	.	.	.	.	.	.	.
.	.	8B-\	.	.	.	.	8B-/	.	.	8d-/	.	.	.	.	.	8B-/	.	.	.	.	.	.	.	.	.	.	.	.	.	.	.	.	.	.	.	.	.	.	.
.	.	4A-\	.	.	.	.	4A-/	.	.	4d-/	.	.	4f/)	.	.	4A-/	.	.	.	4f/	.	.	.	.	.	.	.	.	.	.	.	.	.	.	.	.	.	.	.
4G-\	.	4G-\	.	4G-\	.	.	4A-/	.	.	4c/	.	.	4e-/	-chu	.	4A-/	.	4c/	.	4e-/)	.	.	.	.	.	.	.	.	.	.	.	.	.	.	.	.	.	.	.
=35	=35	=35	=35	=35	=35	=35	=35	=35	=35	=35	=35	=35	=35	=35	=35	=35	=35	=35	=35	=35	=35	=35	=35	=35	=35	=35	=35	=35	=35	=35	=35	=35	=35	=35	=35	=35	=35	=35	=35
!LO:TX:i:t=Col Vceli	!	!	!	!	!	!	!	!	!	!	!	!	!	!	!	!	!	!	!	!	!	!	!	!	!	!	!	!	!	!	!	!	!	!	!	!	!	!	!
4.F^\yy	.	4.F^\	.	4.F^\	czar-	.	2.A-/	.	.	2.d-/	.	.	2.a-/	czar-	.	1A-	.	2.d-/	.	1a-	.	1ryy	.	1ryy	.	1ryy	.	1ryy	.	1ryy	.	1ryy	.	1r	.	1ryy	.	1ryy	.
8G-\yy	.	8G-\	.	8G-\	-ny	.	.	.	.	.	.	.	.	.	.	.	.	.	.	.	.	.	.	.	.	.	.	.	.	.	.	.	.	.	.	.	.	.	.
4F\yy	.	4F\	.	4F\	las	.	.	.	.	.	.	.	.	.	.	.	.	.	.	.	.	.	.	.	.	.	.	.	.	.	.	.	.	.	.	.	.	.	.
4E-\yy	.	4E-\	.	4E-\	twym	.	4A-/	.	.	4e-/	.	.	4a-/	-ny	.	.	.	4e-/	.	.	.	.	.	.	.	.	.	.	.	.	.	.	.	.	.	.	.	.	.
=36	=36	=36	=36	=36	=36	=36	=36	=36	=36	=36	=36	=36	=36	=36	=36	=36	=36	=36	=36	=36	=36	=36	=36	=36	=36	=36	=36	=36	=36	=36	=36	=36	=36	=36	=36	=36	=36	=36	=36
*	*	*	*	*	*	*	*	*	*	*	*	*	*	*	*	*	*	*	*	*	*	*	*	*	*	*	*	*	*	*	*	*	*	*^	*	*	*	*	*
!	!	!	!	!	!	!	!	!	!	!	!	!	!	!	!	!	!	!	!	!	!	!	!	!	!	!	!	!	!	!	!	!	!	!	!	!LO:DY:color=blue	!	!	!	!
4.D-^\yy	.	4.D-^\	.	4.D-^/	płasz-	.	2A-/	.	.	2f/	.	.	2dd-\	las	.	(2d-\	.	(2f/	.	(2dd-\	.	1ryy	.	1ryy	.	1ryy	.	1ryy	.	1ryy	.	1ryy	.	[1D-	[>1D-	p	1r	.	1ryy	.
8C/yy	.	8C/	.	8C/	-czem	.	.	.	.	.	.	.	.	.	.	.	.	.	.	.	.	.	.	.	.	.	.	.	.	.	.	.	.	.	.	.	.	.	.	.
4BB-/yy	.	4BB-/	.	4BB-/	a	.	4B-\	.	.	4d-/	.	.	4f/	two-	.	2F/	.	2d-/)	.	2f/	.	.	.	.	.	.	.	.	.	.	.	.	.	.	.	.	.	.	.	.
4AA-/yy	.	4AA-/	.	4AA-/	jan-	.	4d-\	.	.	4f/	.	.	4f/	-im	.	.	.	.	.	.	.	.	.	.	.	.	.	.	.	.	.	.	.	.	.	.	.	p	.	.
=37	=37	=37	=37	=37	=37	=37	=37	=37	=37	=37	=37	=37	=37	=37	=37	=37	=37	=37	=37	=37	=37	=37	=37	=37	=37	=37	=37	=37	=37	=37	=37	=37	=37	=37	=37	=37	=37	=37	=37	=37
*	*	*	*	*	*	*	*	*	*	*	*	*	*	*	*	*	*	*	*	*	*	*	*	*	*	*	*	*	*	*	*	*	*	*	*	*	*^	*	*	*
*	*	*	*	*	*	*	*	*	*	*	*	*	*	*	*	*	*	*	*	*	*	*	*	*	*	*	*	*	*	*	*	*	*	*rep	*rep	*	*	*	*	*	*
!	!	!	!	!	!	!	!	!	!	!	!	!	!	!	!	!	!	!	!	!	!	!	!	!	!	!	!	!	!	!	!	!	!	!LO:S:color=blue	!LO:S:color=blue	!	!	!	!	!	!
1GGnyy	.	1GGn	.	(>1GGn	-cza-	.	2.d-\	.	.	2.f/	.	.	2.b-\	pła-	.	1f)	.	1d-	.	1b-)	.	1ryy	.	1ryy	.	1ryy	.	1ryy	.	1ryy	.	1ryy	.	1D-_	1D-_>	.	[1B-	1rB	.	1ryy	.
.	ppy	.	pp	.	.	pp	4d-\	.	pp	4f/	.	pp	4b-\	-szczem	.	.	pp	.	pp	.	pp	.	.	.	.	.	.	.	.	.	.	.	.	.	.	.	.	.	p	.	.
*	*	*	*	*	*	*	*	*	*	*	*	*	*	*	*	*	*	*	*	*	*	*	*	*	*	*	*	*	*	*	*	*	*	*Xrep	*Xrep	*	*	*	*	*	*
=38	=38	=38	=38	=38	=38	=38	=38	=38	=38	=38	=38	=38	=38	=38	=38	=38	=38	=38	=38	=38	=38	=38	=38	=38	=38	=38	=38	=38	=38	=38	=38	=38	=38	=38	=38	=38	=38	=38	=38	=38	=38
!	!	!	!	!	!	!LO:DY:b:rj:color=blue	!	!	!	!	!	!	!	!	!	!	!	!	!	!	!	!	!	!	!	!	!	!	!	!	!	!	!	!	!	!	!	!	!	!	!
[y>1GG-Xyy	.	[>1GG-X	.	2.GG-X/)	.	pp	4.d-\	.	.	4.f-X/	.	.	4.b-\	a	pp	(4.f-X\	.	(4.d-/	.	(4.b-\	.	1ryy	.	1ryy	.	1ryy	.	1ryy	.	1ryy	.	1ryy	.	2.D-/]	2.D-\]	.	1B-_	1rB	.	1ryy	.
.	.	.	.	.	.	.	8d-\	.	.	8f-/	.	.	8b-\	jan-	.	8f-'\	.	8d-'/	.	8b-'\	.	.	.	.	.	.	.	.	.	.	.	.	.	.	.	.	.	.	.	.	.
.	.	.	.	.	.	.	4d-\	.	.	4f-/	.	.	4b-\	-cza-	.	4f-'\	.	4d-'/	.	4b-'\	.	.	.	.	.	.	.	.	.	.	.	.	.	.	.	.	.	.	.	.	.
.	.	.	.	4G-X\	-ry	.	4d-\	.	.	4f-/	.	.	4b-\	-ry	.	4f-'\)	.	4d-'/)	.	4b-'\)	.	.	.	.	.	.	.	.	.	.	.	.	.	4rF	4rEEyy	.	.	.	.	.	.
*	*	*	*	*	*	*	*	*	*	*	*	*	*	*	*	*	*	*	*	*	*	*	*	*	*	*	*	*	*	*	*	*	*	*v	*v	*	*	*	*	*	*
=39	=39	=39	=39	=39	=39	=39	=39	=39	=39	=39	=39	=39	=39	=39	=39	=39	=39	=39	=39	=39	=39	=39	=39	=39	=39	=39	=39	=39	=39	=39	=39	=39	=39	=39	=39	=39	=39	=39	=39	=39
!	!	!	!	!	!	!	!	!	!	!	!	!	!	!	!	!LO:TX:b:i:t=ligatiſsimo	!	!LO:TX:a:i:t=ligatiſsimo	!	!LO:TX:b:i:t=ligatiſsimo	!	!	!	!	!	!	!	!	!	!	!	!	!	!	!	!LO:S:color=blue	!	!	!	!
2.GG-/]yy	.	1GG-]	.	(2G-X\	stra-	.	(2B-/	.	.	(>2d-/	.	.	(2b-\	stra-	.	(2f-X\	.	(2d-/	.	(2b-\	.	1ryy	.	1ryy	.	1ryy	.	1ryy	.	1ryy	.	1ryy	.	1r	.	(<2B-/]	1rB	.	1ryy	.
.	.	.	.	2GG-X/)	-chu	.	2An/)	.	.	2c/)	.	.	2e-/)	-chu	.	2An/)	.	2c/)	.	2e-/)	.	.	.	.	.	.	.	.	.	.	.	.	.	.	.	2A/)	.	.	.	.
4ryy	.	.	.	.	.	.	.	.	.	.	.	.	.	.	.	.	.	.	.	.	.	.	.	.	.	.	.	.	.	.	.	.	.	.	.	.	.	.	.	.
*	*	*	*	*	*	*	*	*	*	*	*	*	*	*	*	*	*	*	*	*	*	*	*	*	*	*	*	*	*	*	*	*	*	*	*	*v	*v	*	*	*
!!LO:PB:g=original
=40	=40	=40	=40	=40	=40	=40	=40	=40	=40	=40	=40	=40	=40	=40	=40	=40	=40	=40	=40	=40	=40	=40	=40	=40	=40	=40	=40	=40	=40	=40	=40	=40	=40	=40	=40	=40	=40	=40	=40
*	*	*	*	*	*	*	*	*	*	*	*	*	*	*	*	*	*	*	*	*	*	*	*	*	*	*	*	*	*	*	*	*	*	*^	*	*	*	*	*
1r	.	(2GG-/	.	[>1AA-	tur-	.	2A-X/	.	.	2c-X/	.	.	2e-/	Twój	.	1A-X	.	[>1c-X	.	(2e-/	.	1ryy	.	1ryy	.	1ryy	.	1ryy	.	1ryy	.	1ryy	.	(2G-X/	2G-X\	.	2A-X/	.	1ryy	.
.	.	4FF/	.	.	.	.	4A-/	.	.	4c-/	.	.	4f/	tur-	.	.	.	.	.	4f/	.	.	.	.	.	.	.	.	.	.	.	.	.	4F/	4F\	.	2r	.	.	.
.	.	4EE-/	.	.	.	.	4A-/	.	.	4c-/	.	.	4g-/	-ban	.	.	.	.	.	4g-/	.	.	.	.	.	.	.	.	.	.	.	.	.	4E-/	4E-\	.	.	.	.	.
*	*	*	*	*	*	*	*	*	*	*	*	*	*	*	*	*	*	*	*	*	*	*	*	*	*	*	*	*	*	*	*	*	*	*v	*v	*	*	*	*	*
=41	=41	=41	=41	=41	=41	=41	=41	=41	=41	=41	=41	=41	=41	=41	=41	=41	=41	=41	=41	=41	=41	=41	=41	=41	=41	=41	=41	=41	=41	=41	=41	=41	=41	=41	=41	=41	=41	=41	=41
1r	.	2DDn/	.	4.AA-/]	.	.	4.F/	.	.	4.c-X/	.	.	4.a-/	z chmur	.	2F/	.	(2c-X/]	.	2a-/	.	1ryy	.	1ryy	.	1ryy	.	1ryy	.	1ryy	.	1ryy	.	2F 2Dn\	.	1r	.	1ryy	.
.	.	.	.	8AA-/	-ban	.	8F/	.	.	8c-/	.	.	8a-/	haf-	.	.	.	.	.	.	.	.	.	.	.	.	.	.	.	.	.	.	.	.	.	.	.	.	.
.	.	2EE-/)	.	4AA-/	twój	.	4G-/	.	.	4cn/	.	.	4cc\	-tu-	.	2G-/	.	2cn/)	.	4cc\	.	.	.	.	.	.	.	.	.	.	.	.	.	2G- 2E-\	.	.	.	.	.
.	.	.	.	4AA-/	bły-	.	4G-/	.	.	4c/	.	.	4b-\	-ją	.	.	.	.	.	4b-\)	.	.	.	.	.	.	.	.	.	.	.	.	.	.	.	.	.	.	.
=42	=42	=42	=42	=42	=42	=42	=42	=42	=42	=42	=42	=42	=42	=42	=42	=42	=42	=42	=42	=42	=42	=42	=42	=42	=42	=42	=42	=42	=42	=42	=42	=42	=42	=42	=42	=42	=42	=42	=42
1r	.	(2FF/	.	(4F\	-ska-	.	(4A-/	.	.	4d-/	.	.	(4b-\	bły-	.	2A-/	.	(2d-/	.	(4b-^/	.	1ryy	.	1ryy	.	1ryy	.	1ryy	.	1ryy	.	1ryy	.	2A- 2F\	.	1r	.	1ryy	.
.	.	.	.	4D-\)	.	.	4F/)	.	.	4d-/	.	.	4a-\)	-ska-	.	.	.	.	.	4a-/	.	.	.	.	.	.	.	.	.	.	.	.	.	.	.	.	.	.	.
.	.	2BB-/	.	4BB-/	-wic	.	4G-/	.	.	4d-/	.	.	4d-/	-wic	.	2D-/	.	4d-'/	.	4d-/	.	.	.	.	.	.	.	.	.	.	.	.	.	2G- 2D-\	.	.	.	.	.
.	.	.	.	4BB-/	po-	.	4G-/	.	.	4d-/	.	.	4e-/	po-	.	.	.	4d-'/)	.	4e-/)	.	.	.	.	.	.	.	.	.	.	.	.	.	.	.	.	.	.	.
=43	=43	=43	=43	=43	=43	=43	=43	=43	=43	=43	=43	=43	=43	=43	=43	=43	=43	=43	=43	=43	=43	=43	=43	=43	=43	=43	=43	=43	=43	=43	=43	=43	=43	=43	=43	=43	=43	=43	=43
2r	.	2AA-/)	.	2AA-/	-to-	.	2A-/	.	.	2d-/	.	.	2f/	-to-	.	2.A-/	.	(2d-/	.	(2f/	.	1ryy	.	1ryy	.	1ryy	.	1ryy	.	1ryy	.	1ryy	.	2A- 2AA-\)	.	1r	.	1ryy	.
4r	.	4r	.	4AA-/	-ki	.	4A-/	.	.	4c/	.	.	4e-/	-ki	.	.	.	4c/)	.	4e-/)	.	.	.	.	.	.	.	.	.	.	.	.	.	2r	.	.	.	.	.
!	!	!	!	!	!	!	!	!	!	!	!	!	!	!	!	!	!	!	!	!	!	!	!	!	!	!	!	!	!	!	!	!	!	!	!	!	!	!LO:TX:a:t=J:color=red	!
4AA-'/	.	4AA-'/	.	4r	.	.	4r	.	.	4r	.	.	4r	.	.	4r	.	4r	.	4r	.	.	.	.	.	.	.	.	.	.	.	.	.	.	.	.	.	.	.
=44	=44	=44	=44	=44	=44	=44	=44	=44	=44	=44	=44	=44	=44	=44	=44	=44	=44	=44	=44	=44	=44	=44	=44	=44	=44	=44	=44	=44	=44	=44	=44	=44	=44	=44	=44	=44	=44	=44	=44
2D-^\	.	2D-^\	.	1r	.	.	1r	.	.	1r	.	.	1r	.	.	1r	.	2r	.	1r	.	1ryy	.	1ryy	.	1ryy	.	1ryy	.	1ryy	.	1ryy	.	1ryy	.	1r	.	1ryy	.
2F\	.	2FF^/	.	.	.	.	.	.	.	.	.	.	.	.	.	.	.	4r	.	.	.	.	.	.	.	.	.	.	.	.	.	.	.	.	.	.	.	.	.
.	.	.	.	.	.	.	.	.	.	.	.	.	.	.	.	.	.	4d-/	.	.	.	.	.	.	.	.	.	.	.	.	.	.	.	.	.	.	.	.	.
=45	=45	=45	=45	=45	=45	=45	=45	=45	=45	=45	=45	=45	=45	=45	=45	=45	=45	=45	=45	=45	=45	=45	=45	=45	=45	=45	=45	=45	=45	=45	=45	=45	=45	=45	=45	=45	=45	=45	=45
2.E-^\	.	2.EE-^/	.	1r	.	.	1r	.	.	1r	.	.	1r	.	.	1r	.	2g-^/	.	2r	.	1ryy	.	1ryy	.	1ryy	.	1ryy	.	1ryy	.	1ryy	.	1ryy	.	1r	.	1ryy	.
.	.	.	.	.	.	.	.	.	.	.	.	.	.	.	.	.	.	[2B-^/	.	4b-\	.	.	.	.	.	.	.	.	.	.	.	.	.	.	.	.	.	.	.
4D-\	.	4DD-/	.	.	.	.	.	.	.	.	.	.	.	.	.	.	.	.	.	8cc\L	.	.	.	.	.	.	.	.	.	.	.	.	.	.	.	.	.	.	.
.	.	.	.	.	.	.	.	.	.	.	.	.	.	.	.	.	.	.	.	8dd-\J	.	.	.	.	.	.	.	.	.	.	.	.	.	.	.	.	.	.	.
=46	=46	=46	=46	=46	=46	=46	=46	=46	=46	=46	=46	=46	=46	=46	=46	=46	=46	=46	=46	=46	=46	=46	=46	=46	=46	=46	=46	=46	=46	=46	=46	=46	=46	=46	=46	=46	=46	=46	=46
*	*	*	*	*	*	*	*	*	*	*	*	*	*	*	*	*	*	*	*	*	*	*	*	*	*	*	*	*	*	*	*	*	*	*^	*	*	*	*	*
2C^/	.	(2CC^/	.	1r	.	.	1r	.	.	1r	.	.	1r	.	.	2r	p	4B-/]	.	2ee-^\	.	1ryy	.	1ryy	.	1ryy	.	1ryy	.	1ryy	.	1ryy	.	2r	2rEEyy	.	1r	.	1ryy	.
.	.	.	.	.	.	.	.	.	.	.	.	.	.	.	.	.	.	4r	.	.	.	.	.	.	.	.	.	.	.	.	.	.	.	.	.	.	.	.	.	.
!	!	!	!	!	!	!	!	!	!	!	!	!	!	!	!	!LO:ART:color=blue	!	!	!	!	!	!	!	!	!	!	!	!	!	!	!	!	!	!	!	!LO:DY:rj	!	!	!	!
4ryy	.	4C/)	.	.	.	.	.	.	.	.	.	.	.	.	.	2E-^/	.	2g-^/	.	4g-^/	.	.	.	.	.	.	.	.	.	.	.	.	.	2E-^/	2E-\	p	.	.	.	.
4BB-/	.	4BB-/	.	.	.	.	.	.	.	.	.	.	.	.	.	.	.	.	.	8a-/L	.	.	.	.	.	.	.	.	.	.	.	.	.	.	.	.	.	.	.	.
.	.	.	.	.	.	.	.	.	.	.	.	.	.	.	.	.	.	.	.	8b-/J	.	.	.	.	.	.	.	.	.	.	.	.	.	.	.	.	.	.	.	.
=47	=47	=47	=47	=47	=47	=47	=47	=47	=47	=47	=47	=47	=47	=47	=47	=47	=47	=47	=47	=47	=47	=47	=47	=47	=47	=47	=47	=47	=47	=47	=47	=47	=47	=47	=47	=47	=47	=47	=47	=47
*	*	*	*	*	*	*	*	*	*	*	*	*	*	*	*	*	*	*	*	*	*	*	*	*	*	*	*	*	*	*	*	*^	*	*	*	*	*	*	*	*
1AA-	.	1AA-	.	1r	.	.	1r	.	.	1r	.	.	1r	.	.	2A-^/	.	1e-	.	4.cc^\	.	1ryy	.	1ryy	.	1ryy	.	1ryy	.	1ryy	.	2r	2rFyy	.	2A-^/	2A-\	.	1r	.	1ryy	.
.	.	.	.	.	.	.	.	.	.	.	.	.	.	.	.	.	.	.	.	8b-\	.	.	.	.	.	.	.	.	.	.	.	.	.	.	.	.	.	.	.	.	.
.	.	.	.	.	.	.	.	.	.	.	.	.	.	.	.	[2C^/	.	.	.	4a-/	.	.	.	.	.	.	.	.	.	.	.	4r	4rFyy	.	[2C^/	[>2C\	.	.	.	.	.
!	!	!	!	!	!	!	!	!	!	!	!	!	!	!	!	!	!	!	!	!	!	!	!	!	!	!	!	!	!	!	!	!	!	!LO:DY:rj	!	!	!	!	!	!	!
.	.	.	.	.	.	.	.	.	.	.	.	.	.	.	.	.	.	.	.	4g-/	.	.	.	.	.	.	.	.	.	.	.	4c/	4c\	p	.	.	.	.	.	.	.
=48	=48	=48	=48	=48	=48	=48	=48	=48	=48	=48	=48	=48	=48	=48	=48	=48	=48	=48	=48	=48	=48	=48	=48	=48	=48	=48	=48	=48	=48	=48	=48	=48	=48	=48	=48	=48	=48	=48	=48	=48	=48
1AAn	.	1AAn	.	1r	.	.	1r	.	.	1r	.	.	1r	.	.	4C/]	.	1c	.	2.f^/	.	1ryy	.	1ryy	.	1ryy	.	1ryy	.	1ryy	.	2f^/	2f\	.	4C/]	4C\]	.	1ryy	.	1ryy	.
.	.	.	.	.	.	.	.	.	.	.	.	.	.	.	.	4r	.	.	.	.	.	.	.	.	.	.	.	.	.	.	.	.	.	.	4rF	4rEEyy	.	.	.	.	.
.	.	.	.	.	.	.	.	.	.	.	.	.	.	.	.	[2F/	sf	.	.	.	.	.	.	.	.	.	.	.	.	.	.	[2F^/	[>2F\	.	2rF	2rEEyy	.	.	.	.	.
!	!	!	!	!	!	!	!	!	!	!	!	!	!	!	!LO:DY:t=pp.	!	!	!	!	!	!	!	!	!	!	!	!	!	!	!	!	!	!	!	!	!	!	!	!	!	!
.	.	.	.	.	.	pp	.	.	pp	.	.	pp	.	.	pp	.	.	.	.	4e-/	.	.	.	.	.	.	.	.	.	.	.	.	.	.	.	.	.	.	.	.	.
=49	=49	=49	=49	=49	=49	=49	=49	=49	=49	=49	=49	=49	=49	=49	=49	=49	=49	=49	=49	=49	=49	=49	=49	=49	=49	=49	=49	=49	=49	=49	=49	=49	=49	=49	=49	=49	=49	=49	=49	=49	=49
*	*	*	*	*	*	*	*	*	*	*	*	*	*	*	*	*	*	*	*	*	*	*	*	*	*	*	*	*	*	*	*	*	*	*	*	*	*	*^	*	*	*
4.BB-/	.	4.BB-/	.	2.D-\	.	.	2.D-/	.	.	2.d-/	.	.	2.d-/	Nam	.	2F/]	.	2.B-/	.	2.d-/	.	1ryy	.	1ryy	.	1ryy	.	1ryy	.	1ryy	.	4F/]	4F\]	.	1D-	1D-	.	(2.d-/	1rB	.	1ryy	.
.	.	.	.	.	.	.	.	.	.	.	.	.	.	.	.	.	.	.	.	.	.	.	.	.	.	.	.	.	.	.	.	4r	4rFyy	.	.	.	.	.	.	.	.	.
!LO:ACC:color=blue	!	!	!	!	!	!	!	!	!	!	!	!	!	!	!	!	!	!	!	!	!	!	!	!	!	!	!	!	!	!	!	!	!	!	!	!	!	!	!	!	!	!
8AA-X/	.	8AA-X/	.	.	.	.	.	.	.	.	.	.	.	.	.	.	.	.	.	.	.	.	.	.	.	.	.	.	.	.	.	.	.	.	.	.	.	.	.	.	.	.
4GG-/	.	4GG-/	.	.	.	.	.	.	.	.	.	.	.	.	.	2G-/	.	.	.	.	.	.	.	.	.	.	.	.	.	.	.	2r	2rFyy	.	.	.	.	.	.	.	.	.
4r	.	4EE-/	.	4E-\	.	.	4E-/	.	.	4e-/	.	.	4e-/	czy	.	.	.	4c/	.	4e-/	.	.	.	.	.	.	.	.	.	.	.	.	.	.	.	.	.	4e-/	.	.	.	.
*	*	*	*	*	*	*	*	*	*	*	*	*	*	*	*	*	*	*	*	*	*	*	*	*	*	*	*	*	*	*	*	*v	*v	*	*	*	*	*	*	*	*	*
=50	=50	=50	=50	=50	=50	=50	=50	=50	=50	=50	=50	=50	=50	=50	=50	=50	=50	=50	=50	=50	=50	=50	=50	=50	=50	=50	=50	=50	=50	=50	=50	=50	=50	=50	=50	=50	=50	=50	=50	=50	=50
1AA-	.	1AA-	.	4F\	.	.	4F/	.	.	4f/	.	.	(4f/	słoń-	.	4A-^/	.	2d-/	.	(4f/	.	1ryy	.	1ryy	.	1ryy	.	1ryy	.	1ryy	.	1r	.	4A-^/	(4A-\	.	4f/	1rB	.	1ryy	.
.	.	.	.	4G-\	.	.	4G-/	.	.	4g-/	.	.	4g-/)	.	.	8G-/L	.	.	.	4g-/	.	.	.	.	.	.	.	.	.	.	.	.	.	8G-/L	8G-\L	.	4g-/	.	.	.	.
.	.	.	.	.	.	.	.	.	.	.	.	.	.	.	.	8F/J	.	.	.	.	.	.	.	.	.	.	.	.	.	.	.	.	.	8F/J	8F\J	.	.	.	.	.	.
.	.	.	.	4A-\	.	.	4A-/	.	.	4a-\	.	.	4a-/	-ce	.	8E-/L	.	4c/	.	4a-/)	.	.	.	.	.	.	.	.	.	.	.	.	.	8E-/L	8E-\L	.	4a-/	.	.	.	.
.	.	.	.	.	.	.	.	.	.	.	.	.	.	.	.	8F/J	.	.	.	.	.	.	.	.	.	.	.	.	.	.	.	.	.	8F/J	8F\J	.	.	.	.	.	.
.	.	.	.	8B-\L	.	.	8B-\L	.	.	8b-\L	.	.	8b-\L	do-	.	[4G-^/	.	4e-/	.	8b-\L	.	.	.	.	.	.	.	.	.	.	.	.	.	([4G-^/	[>4G-\)	.	8b-/L	.	.	.	.
.	.	.	.	8c\J	.	.	8c\J	.	.	8cc\J	.	.	8cc\J	.	.	.	.	.	.	8cc\J	.	.	.	.	.	.	.	.	.	.	.	.	.	.	.	.	8cc/J	.	.	.	.
=51	=51	=51	=51	=51	=51	=51	=51	=51	=51	=51	=51	=51	=51	=51	=51	=51	=51	=51	=51	=51	=51	=51	=51	=51	=51	=51	=51	=51	=51	=51	=51	=51	=51	=51	=51	=51	=51	=51	=51	=51	=51
*	*	*	*	*	*	*	*	*	*	*	*	*	*	*	*	*^	*	*	*	*	*	*	*	*	*	*	*	*	*	*	*	*	*	*	*	*	*	*	*	*	*
2BB--/	.	2BB--/	.	2.d-\	.	.	2.d-\	.	.	2.dd-\	.	.	2.dd-\	-pie-	.	2G-/]	2rDyy	.	(4d-/	.	2.dd-\	.	1ryy	.	1ryy	.	1ryy	.	1ryy	.	1ryy	.	1r	.	2G-/]	2G-\]	.	2dd-/)	1rB	.	1ryy	.
.	.	.	.	.	.	.	.	.	.	.	.	.	.	.	.	.	.	.	4e-/	.	.	.	.	.	.	.	.	.	.	.	.	.	.	.	.	.	.	.	.	.	.	.
!	!	!	!	!	!	!	!	!	!	!	!	!	!	!	!	!	!	!	!	!	!	!	!	!	!	!	!	!	!	!	!	!	!	!	!	!LO:TX:t=P:problem=początek ligatur niebieski	!	!	!	!	!	!
2AA-/	.	2AA-/	.	.	.	.	.	.	.	.	.	.	.	.	.	2A-/	2D-\	.	4f/)	.	.	.	.	.	.	.	.	.	.	.	.	.	.	.	[2D-/)	[>2D-\	.	2rf	.	.	.	.
.	.	.	.	4A-\	.	.	4c-X\	.	.	4a-/	.	.	4cc-X\	-ka,	.	.	.	.	8g-/L	.	4cc-X\	.	.	.	.	.	.	.	.	.	.	.	.	.	.	.	.	.	.	.	.	.
.	.	.	.	.	.	.	.	.	.	.	.	.	.	.	.	.	.	.	8a-/J	.	.	.	.	.	.	.	.	.	.	.	.	.	.	.	.	.	.	.	.	.	.	.
*	*	*	*	*	*	*	*	*	*	*	*	*	*	*	*	*v	*v	*	*	*	*	*	*	*	*	*	*	*	*	*	*	*	*	*	*	*	*	*v	*v	*	*	*
!!LO:PB:g=original
=52	=52	=52	=52	=52	=52	=52	=52	=52	=52	=52	=52	=52	=52	=52	=52	=52	=52	=52	=52	=52	=52	=52	=52	=52	=52	=52	=52	=52	=52	=52	=52	=52	=52	=52	=52	=52	=52	=52	=52	=52
1GG-	.	(2GG-/	.	4A-\	.	.	4c-X\	.	.	4a-/	.	.	4cc-X\	czy-	.	1D-^	.	(4a-^/	.	(4cc-X^\	.	1r	.	1r	.	1r	.	1r	.	1r	.	1r	.	1D-]	1D-]	.	1r	.	1r	.
.	.	.	.	4G-X\	.	.	4B--\	.	.	4g-X/	.	.	4b--\	-li	.	.	.	4g-/	.	4b--\	.	.	.	.	.	.	.	.	.	.	.	.	.	.	.	.	.	.	.	.
.	.	4AA-/	.	4F\	.	.	4A-/	.	.	4f/	.	.	4a-/	mgła	.	.	.	4f/	.	4a-/	.	.	.	.	.	.	.	.	.	.	.	.	.	.	.	.	.	.	.	.
.	.	4BB--/)	.	4E-\	.	.	4G-/	.	.	4e-/	.	.	4g-/	o-	.	.	.	4e-/)	.	4g-/)	.	.	.	.	p	.	.	.	.	.	.	.	.	.	.	.	.	.	.	.
=53||	=53||	=53||	=53||	=53||	=53||	=53||	=53||	=53||	=53||	=53||	=53||	=53||	=53||	=53||	=53||	=53||	=53||	=53||	=53||	=53||	=53||	=53||	=53||	=53||	=53||	=53||	=53||	=53||	=53||	=53||	=53||	=53||	=53||	=53||	=53||	=53||	=53||	=53||	=53||	=53||
!LO:TX:a:i:t=Col Vcelli	!	!	!	!	!	!	!	!	!	!	!	!	!	!	!	!	!	!	!	!	!	!	!	!	!	!	!	!	!	!	!	!	!	!	!	!	!	!	!	!
!LO:TX:b:i:t=piu moſso.	!	!LO:TX:b:i:t=piu moſso.	!	!	!	!	!	!	!	!	!	!	!	!	!	!LO:TX:a:i:t=divisi	!	!	!	!LO:TX:a:i:t=piu moſso.:note=podkreślone na niebiesko	!	!	!	!	!	!	!	!	!	!	!	!	!	!	!	!	!	!	!LO:TX:a:i:t=piu moſso.	!
4D-'\yy	.	4D-'\	.	4F\	.	.	4A-/	.	.	4f/	.	.	4a-/	-cie-	.	[1A- [>1F	.	(4f/	.	(4a-/	.	1ryy	.	[>1DD-	.	1ryy	.	1ryy	.	1ryy	.	1ryy	.	[1A-	[>1D-	.	1ryy	.	1ryy	.
4D-'\yy	.	4D-'\	.	8D-\	.	.	8A-/	.	.	8d-/	.	.	8f/	-nia	.	.	.	4d-/)	.	4f/)	.	.	.	.	.	.	.	.	.	.	.	.	.	.	.	.	.	.	.	.
.	.	.	.	8r	.	.	8r	.	.	8r	.	.	8r	.	.	.	.	.	.	.	.	.	.	.	.	.	.	.	.	.	.	.	.	.	.	.	.	.	.	.
4D-'\yy	.	4D-'\	.	4D-'\	.	.	4d-'\	.	.	4f'/	.	.	4a-'/	czy	.	.	.	4f'/	.	4a-'/	.	.	.	.	.	.	.	.	.	.	.	.	.	.	.	.	.	.	.	.
4D-'\yy	.	4D-'\	.	4D-'\	.	.	4d-'\	.	.	4f'/	.	.	4a-'/	sza-	.	.	.	4f'/	.	4a-'/	.	.	.	.	.	.	.	.	.	.	.	.	.	.	.	.	.	.	.	.
=54	=54	=54	=54	=54	=54	=54	=54	=54	=54	=54	=54	=54	=54	=54	=54	=54	=54	=54	=54	=54	=54	=54	=54	=54	=54	=54	=54	=54	=54	=54	=54	=54	=54	=54	=54	=54	=54	=54	=54	=54
*rep	*	*rep	*	*	*	*	*	*	*	*	*	*	*	*	*	*	*	*	*	*	*	*	*	*rep	*	*	*	*	*	*	*	*	*	*rep	*rep	*	*	*	*	*
!	!	!	!	!	!	!	!	!	!	!	!	!	!	!	!	!	!	!	!	!	!	!	!	!	!	!	!	!	!	!	!	!	!	!	!LO:T:color=blue	!	!	!	!	!
4D-'\yy	.	4D-'\	.	2D-\	.	.	2d-\	.	.	2f/	.	.	2a-/	-rań-	.	1A-] 1F_	.	4f'/	.	4a-'/	.	1ryy	.	1DD-_>	.	1ryy	.	1ryy	.	1ryy	.	1ryy	.	1A-]	1D-_	.	1ryy	.	1ryy	.
4D-'\yy	.	4D-'\	.	.	.	.	.	.	.	.	.	.	.	.	.	.	.	4f'/	.	4a-'/	.	.	.	.	.	.	.	.	.	.	.	.	.	.	.	.	.	.	.	.
4D-'\yy	.	4D-'\	.	4D-\	.	.	4d-\	.	.	4f/	.	.	4a-/	-cza	.	.	.	4f'/	.	4a-'/	.	.	.	.	.	.	.	.	.	.	.	.	.	.	.	.	.	.	.	.
4D-'\yy	.	4D-'\	.	4D-\	.	.	4d-\	.	.	4f/	.	.	4a-/	plon	.	.	.	4f'/	.	4a-'/	.	.	.	.	.	.	.	.	.	.	.	.	.	.	.	.	.	.	.	.
*Xrep	*	*Xrep	*	*	*	*	*	*	*	*	*	*	*	*	*	*	*	*	*	*	*	*	*	*Xrep	*	*	*	*	*	*	*	*	*	*Xrep	*Xrep	*	*	*	*	*
=55	=55	=55	=55	=55	=55	=55	=55	=55	=55	=55	=55	=55	=55	=55	=55	=55	=55	=55	=55	=55	=55	=55	=55	=55	=55	=55	=55	=55	=55	=55	=55	=55	=55	=55	=55	=55	=55	=55	=55	=55
*rep	*	*rep	*	*	*	*	*	*	*	*	*	*	*	*	*	*	*	*	*	*	*	*	*	*rep	*	*	*	*	*	*	*	*	*	*	*rep	*	*	*	*	*
!	!	!	!	!	!	!	!	!	!	!	!	!	!	!	!	!	!	!	!	!	!	!	!	!	!	!	!	!	!	!	!	!	!	!LO:S:color=blue	!LO:T:color=blue	!	!	!	!	!
4D-'\yy	.	4D-'\	.	2D-\	.	.	2d-\	.	.	2f/	.	.	2an/	zet-	.	[1An 1F_>	.	(4f/	.	(4an/	.	1ryy	.	1DD-_>	.	1ryy	.	1ryy	.	1ryy	.	1ryy	.	([1An	1D-_	.	1ryy	.	1ryy	.
4D-'\yy	.	4D-'\	.	.	.	.	.	.	.	.	.	.	.	.	.	.	.	4d-/)	.	4f/)	.	.	.	.	.	.	.	.	.	.	.	.	.	.	.	.	.	.	.	.
4D-'\yy	.	4D-'\	.	4D-\	.	.	4d-\	.	.	4f/	.	.	4a/	-nie,	.	.	.	4f'/	.	4a'/	.	.	.	.	.	.	.	.	.	.	.	.	.	.	.	.	.	.	.	.
4D-'\yy	.	4D-'\	.	4D-\	.	.	4d-\	.	.	4f/	.	.	4a/	czy	.	.	.	4f'/	.	4a'/	.	.	.	.	.	.	.	.	.	.	.	.	.	.	.	.	.	.	.	.
*Xrep	*	*Xrep	*	*	*	*	*	*	*	*	*	*	*	*	*	*	*	*	*	*	*	*	*	*Xrep	*	*	*	*	*	*	*	*	*	*	*Xrep	*	*	*	*	*
=56	=56	=56	=56	=56	=56	=56	=56	=56	=56	=56	=56	=56	=56	=56	=56	=56	=56	=56	=56	=56	=56	=56	=56	=56	=56	=56	=56	=56	=56	=56	=56	=56	=56	=56	=56	=56	=56	=56	=56	=56
*rep	*	*rep	*	*	*	*	*	*	*	*	*	*	*	*	*	*	*	*	*	*	*	*	*	*rep	*	*	*	*	*	*	*	*	*	*rep	*rep	*	*	*	*	*
!	!	!	!	!	!	!	!	!	!	!	!	!	!	!	!	!	!	!	!	!	!	!	!	!	!	!	!	!	!	!	!	!	!	!	!LO:T:color=blue	!	!	!	!	!
4D-'\yy	.	4D-'\	.	2D-\	.	.	2d-\	.	.	2f/	.	.	2an/	giaur	.	1A] 1F]	.	4f'/	.	4an'/	.	1ryy	.	1DD-_>	.	1r	.	1r	.	1ryy	.	1ryy	.	1A]	1D-_	.	1ryy	.	1ryy	.
4D-'\yy	.	4D-'\	.	.	.	.	.	.	.	.	.	.	.	.	.	.	.	4f'/	.	4a'/	.	.	.	.	.	.	.	.	.	.	.	.	.	.	.	.	.	.	.	.
4D-'\yy	.	4D-'\	.	4D-\	.	.	4d-\	.	.	4f/	.	.	4a/	pa-	.	.	.	4f'/	.	4a'/	.	.	.	.	.	.	.	.	.	.	.	.	.	.	.	.	.	.	.	.
4D-'\yy	.	4D-'\	.	4D-\	.	.	4d-\	.	.	4f/	.	.	4a/	-li	.	.	.	4f'/	.	4a'/	.	.	.	.	.	.	.	.	.	.	.	.	.	.	.	.	.	.	.	.
*Xrep	*	*Xrep	*	*	*	*	*	*	*	*	*	*	*	*	*	*	*	*	*	*	*	*	*	*Xrep	*	*	*	*	*	*	*	*	*	*Xrep	*Xrep	*	*	*	*	*
=57	=57	=57	=57	=57	=57	=57	=57	=57	=57	=57	=57	=57	=57	=57	=57	=57	=57	=57	=57	=57	=57	=57	=57	=57	=57	=57	=57	=57	=57	=57	=57	=57	=57	=57	=57	=57	=57	=57	=57	=57
*	*	*	*	*	*	*	*	*	*	*	*	*	*	*	*	*	*	*	*	*	*	*	*	*	*	*	*	*	*	*^	*	*^	*	*	*	*	*^	*	*^	*
!	!	!	!	!	!	!	!	!	!	!	!	!	!	!	!	!	!	!	!	!	!	!	!	!	!	!LO:TX:a:t=X:color=red	!	!	!	!	!	!	!	!	!	!	!	!	!	!	!	!LO:TX:a:t=X:color=red	!	!
4D-\yy	.	4D-\	.	4D-\	.	.	4d-\	.	.	4f/	.	.	4b-/	do-	.	4B- 4E-/	ff	4f/	.	4b-/	.	1ryy	.	4DD-/]	.	1r	.	1r	.	2r	2reyy	.	2r	2rFyy	.	4B-\)	4D-\]	.	2r	2rByy	.	2r	2rcyy	.
!	!LO:DY:rj	!	!LO:DY:rj	!	!	!	!	!	!	!	!	!	!	!	!	!	!	!	!	!	!	!	!	!	!	!	!	!	!	!	!	!	!	!	!	!	!	!	!	!	!	!	!	!
4F^\yy	ffy	4F^\	ff	8F\	.	.	8B-\	.	.	8f/	.	.	8f/	-my	.	4E-^/	.	4f/	.	4f/	.	.	.	4r	.	.	.	.	.	.	.	.	.	.	.	4rF	4rEEyy	.	.	.	.	.	.	.
.	.	.	.	8r	.	ff	8r	.	ff	8r	.	.	8r	.	.	.	.	.	.	.	.	.	.	.	.	.	.	.	.	.	.	.	.	.	.	.	.	.	.	.	.	.	.	f
!	!	!	!	!	!	!	!	!	!	!	!	!LO:DY:a	!	!	!LO:DY:a	!	!	!	!LO:DY:rj	!	!LO:DY:rj	!	!	!	!	!	!	!	!	!	!	!LO:DY:rj	!	!	!LO:DY:rj	!	!	!LO:DY:rj	!	!	!LO:DY:rj	!	!	!
4D-^\yy	.	4D-^\	.	4B-'\	.	.	4d-'\	.	.	4f'/	.	ff	4b-'\	cza-	ff	4D-^/	.	4f'/	ff	4b-'\	ff	.	.	2r	.	.	.	.	.	4b-'/	4b-\	f	4f'/	4f\	f	4D-'/	4D-\	f	4b-'/	4b-\	f	4b-'/	4b-\	.
4BB-^>/yy	.	4BB-^>/	.	4B-'\	.	.	4d-'\	.	.	4f'/	.	.	4dd-'\	-tyr-	.	4B-^/	.	4b- 4f'/	.	4dd-'\	.	.	.	.	.	.	.	.	.	4b-'/	4b-\	.	4f'/	4f\	.	4BB-'/	4BB-\	.	4b-'/	4b-\	.	4dd-'/	4dd-\	.
=58	=58	=58	=58	=58	=58	=58	=58	=58	=58	=58	=58	=58	=58	=58	=58	=58	=58	=58	=58	=58	=58	=58	=58	=58	=58	=58	=58	=58	=58	=58	=58	=58	=58	=58	=58	=58	=58	=58	=58	=58	=58	=58	=58	=58
*	*	*	*	*	*	*	*	*	*	*	*	*	*	*	*	*	*	*	*	*	*	*	*	*	*	*	*	*^	*	*	*	*	*	*	*	*	*	*	*	*	*	*	*	*
!	!	!	!	!	!	!	!	!	!	!	!	!	!	!	!	!	!	!	!LO:DY:t=sff	!	!LO:DY:rj:t=sff	!	!LO:DY:rj	!	!	!	!	!	!	!	!	!	!	!LO:S:color=blue	!LO:S:color=blue	!LO:DY:color=blue	!	!	!	!	!	!	!	!	!
4E-^\yy	.	4E-^\	.	1B-^	.	.	1e-^	.	.	1g-^	.	.	1cc^	-da-	.	4E-^/	.	1an	sf	1cc 1e-	sf	1BB-yT	sf	(>1EE-	sf	[>1BB-	sf	(1G-X	1E-	sf	(1ee-	(>1ee-	sf >	(1g-X	(>1g-	sf	(2E-/	2E-\	sf	(1a	(>1a	sf	(1cc	(>1cc	sf
!	!	!	!	!	!	!	!	!	!	!	!	!	!	!	!	!	!	!	!	!	!	!	!	!	!	!	!	!	!	!	!	!	!	!	!	!LO:HP:color=blue	!	!	!	!	!	!	!	!	!
4G-^\yy	.	4G-^\	.	.	.	.	.	.	.	.	.	.	.	.	.	4G-^/	.	.	>	.	>	.	>	.	>	.	>	.	.	>	.	.	.	.	.	>	.	.	.	.	.	.	.	.	>
4F^\yy	.	4F^\	.	.	.	.	.	.	.	.	.	.	.	.	.	4F^/	.	.	.	.	.	.	.	.	.	.	.	.	.	.	.	.	.	.	.	.	4F/	4F\	>	.	.	.	.	.	.
4E-^\yy	.	4E-^\	.	.	.	.	.	.	.	.	.	.	.	.	.	4E-^/	.	.	]]	.	]]	.	.	.	]]	.	]]	.	.	]]	.	.	.	.	.	]]	4E-/	4E-\	.	.	.	.	.	.	]]
=59	=59	=59	=59	=59	=59	=59	=59	=59	=59	=59	=59	=59	=59	=59	=59	=59	=59	=59	=59	=59	=59	=59	=59	=59	=59	=59	=59	=59	=59	=59	=59	=59	=59	=59	=59	=59	=59	=59	=59	=59	=59	=59	=59	=59	=59
4D-^\yy	.	4D-^\	.	4D-\	.	.	4f\	.	.	4f/	.	.	4b-\	-hu!	.	4D-^/	.	4b-\	.	4b-\	.	4BB-y/	]	4DD-'/)	.	4BB-/]	.	4F/)	4F\	.	4ff/)	4ff\)	]	4f/)	4f\)	.	4D-/)	4D-\	]	4b-/)	4b-\)	.	4b-/)	4b-\)	.
4F^\yy	.	4F^\	.	4r	.	.	4r	.	.	4r	.	.	4r	.	.	4F^/	.	4r	.	4r	.	4r	.	4r	.	4r	.	4r	4rBByy	.	4rff	4reyy	.	4rg	4rFyy	.	4rF	4rEEyy	.	4rcc	4rByy	.	4rdd	4rcyy	.
!	!	!	!	!	!	!	!	!	!	!	!	!	!	!	!	!	!	!	!	!	!	!	!	!	!	!	!	!	!	!	!	!	!LO:DY:rj	!	!	!LO:DY:rj	!	!	!LO:DY:rj	!	!	!LO:DY:rj	!	!	!LO:DY:rj
4D-^\yy	.	4D-^\	.	4B-'\	.	.	4d-'\	.	.	4f'/	.	.	4b-'\	Cza-	.	4D-^/	.	4f'/	.	4b-'\	.	2r	.	2r	.	2r	.	2r	2rBByy	.	4b-'/	4b-\	f	4f'/	4f\	f	4D-'/	4D-\	f	4b-'/	4b-\	f	4b-'/	4b-\	f
4BB-^>/yy	.	4BB-^>/	.	4B-'\	.	.	4d-'\	.	.	4f'/	.	.	4dd-'\	-tyr-	.	4B-^/	.	4b- 4f'/	.	4dd-'\	.	.	.	.	sf	.	.	.	.	.	4b-'/	4b-\	.	4f'/	4f\	.	4BB-'/	4BB-\	.	4b-'/	4b-\	.	4dd-'/	4dd-\	.
=60	=60	=60	=60	=60	=60	=60	=60	=60	=60	=60	=60	=60	=60	=60	=60	=60	=60	=60	=60	=60	=60	=60	=60	=60	=60	=60	=60	=60	=60	=60	=60	=60	=60	=60	=60	=60	=60	=60	=60	=60	=60	=60	=60	=60	=60
!	!	!	!	!	!	!	!	!	!	!	!	!	!	!	!	!	!	!	!LO:DY:t=sff	!	!LO:DY:rj:t=sff	!	!LO:DY:rj	!	!	!	!	!	!	!LO:DY:rj	!	!	!	!	!	!	!	!	!	!	!	!	!	!	!
4E-^\yy	.	4E-^\	.	1B-^	.	.	1e-^	.	.	1g-^>	.	.	1cc^	-da-	.	4E-^/	.	1an	sf	1cc 1e-	sf	1BB-yT	sf	(>1EE-	.	[>1BB-	sf	(1G-X	(>1E-	sf	(1ee-	(>1ee-	sf	(1g-X	(>1g-	sf	(2E-/	2E-\	sf	(1a	(>1a	sf	(1cc	(>1cc	sf
!	!	!	!	!	!	!	!	!	!	!	!	!	!	!	!	!	!	!	!LO:HP:color=blue	!	!LO:HP:color=blue	!	!	!	!	!	!	!	!	!	!	!	!	!	!	!	!	!	!	!	!	!	!	!	!
4G-^\yy	.	4G-^\	.	.	.	.	.	.	.	.	.	.	.	.	.	4G-^/	.	.	>	.	>	.	>	.	.	.	>	.	.	.	.	.	>	.	.	>	.	.	>	.	.	>	.	.	>
4F^\yy	.	4F^\	.	.	.	.	.	.	.	.	.	.	.	.	.	4F^/	.	.	.	.	.	.	.	.	.	.	.	.	.	.	.	.	.	.	.	.	4F/	4F\	.	.	.	.	.	.	.
4E-^\yy	.	4E-^\	.	.	.	.	.	.	.	.	.	.	.	.	.	4E-^/	.	.	]]	.	]]	.	]]	.	.	.	]]	.	.	.	.	.	]]	.	.	]]	4E-/	4E-\	]]	.	.	]]	.	.	]]
!!LO:PB:g=original
=61	=61	=61	=61	=61	=61	=61	=61	=61	=61	=61	=61	=61	=61	=61	=61	=61	=61	=61	=61	=61	=61	=61	=61	=61	=61	=61	=61	=61	=61	=61	=61	=61	=61	=61	=61	=61	=61	=61	=61	=61	=61	=61	=61	=61	=61
!	!	!	!	!	!	!	!	!	!	!	!	!	!	!	!	!	!	!	!	!	!	!	!	!LO:TX:a:t=P:problem=koniec łuku niebieski	!	!LO:TX:a:t=P:problem=koniec łuku niebieski	!	!	!LO:TX:a:t=P:problem=koniec łuków niebieski	!	!	!	!	!	!	!	!LO:TX:a:t=P:problem=koniec łuku niebieski	!	!	!	!	!	!	!	!
4D-\	.	4D-\	.	8D-\	.	.	8f\	.	.	8f/	.	.	8b-\	-hu!	.	4D-/	.	4b-\	.	4b-\	.	4BB-y/	.	4DD-/)	.	4BB-/]	.	4F/)	4F\)	.	4dd-X/)	4dd-\)	.	4f/)	4f\)	.	4D-/)	4D-\	.	4b-'/)	4b-\)	.	4b-/)	4b-\)	.
.	.	.	.	8r	.	.	8r	.	.	8r	.	.	8r	.	.	.	.	.	.	.	.	.	.	.	.	.	.	.	.	.	.	.	.	.	.	.	.	.	.	.	.	.	.	.	.
4BB-^\	.	4BB-^\	.	4B-^\	.	.	4B-^\	.	.	4b- 4B-^/	.	.	4b-^\	ty	.	4B-^\	.	4B-^/	.	4b-^\	.	4r	.	4r	.	4r	.	4rc	4rBByy	.	4b-^/	4b-\	.	4B-^/	4B-\	.	4BB-^/	4BB-\	.	4b-^/	4b-\	.	4b-^/	4b-\	.
4C^\	.	4C^\	.	4c^\	.	.	4c^\	.	.	4cc 4c^/	.	.	4cc^\	zaw-	.	4c^\	.	4c^/	.	4cc^\	.	2r	.	2r	.	2r	.	2r	2rBByy	.	4cc^/	4cc\	.	4c^/	4c\	.	4C^/	4C\	.	4cc^/	4cc\	.	4cc^/	4cc\	.
4D-^\	.	4D-^\	.	4d-^\	.	.	4d-^\	.	.	4dd- 4d-^/	.	.	4dd-^\	-sze	.	4d-^\	.	4d-^/	.	4dd-^\	.	.	.	.	.	.	.	.	.	.	4dd-^/	4dd-\	.	4d-X^/	4d-\	.	4D-^/	4D-\	.	4dd-^/	4dd-\	.	4dd-^/	4dd-\	.
=62	=62	=62	=62	=62	=62	=62	=62	=62	=62	=62	=62	=62	=62	=62	=62	=62	=62	=62	=62	=62	=62	=62	=62	=62	=62	=62	=62	=62	=62	=62	=62	=62	=62	=62	=62	=62	=62	=62	=62	=62	=62	=62	=62	=62	=62
*	*	*	*	*	*	*	*	*	*	*	*	*	*	*	*	*	*	*	*	*	*	*	*	*	*	*2\right	*	*	*2\right	*	*	*	*	*	*	*	*	*	*	*	*	*	*	*2\right	*
1E-	.	4E-\	.	[2.e-^\	.	.	[2.e-^\	.	.	2.ee- 2.e-^/	.	.	[2.ee-^\	głu-	.	4e-^\	.	4e-^/	.	4ee-^\	.	1r	.	1r@	.	[2.E-^\	.	[2.e-^/	[>2.e-\	.	[2.ee-^/	[>2.ee-\	.	[2.e-^/	[>2.e-X\	.	1E-^	1E-	.	[2.ee-^/	[>2.ee-\	.	[2.ee-^/	[>2.ee-\	.
.	.	4E-\	.	.	.	.	.	.	.	.	.	.	.	.	.	4E-'/	.	4e-'/	.	4e-'/	.	.	.	.	.	.	.	.	.	.	.	.	.	.	.	.	.	.	.	.	.	.	.	.	.
.	.	4E-\	.	.	.	.	.	.	.	.	.	.	.	.	.	4E-'/	.	4e-'/	.	4e-'/	.	.	.	.	.	.	.	.	.	.	.	.	.	.	.	.	.	.	.	.	.	.	.	.	.
.	.	4e-\	.	8e-\]	.	.	8e-\]	.	.	8ee- 8e-/	.	.	8ee-\]	.	.	8E-'/L	.	8e-'/L	.	8e-'/L	.	.	.	.	.	8E-\L]	.	8e-/L]	8e-\L]	.	8ee-/L]	8ee-\L]	.	8e-/L]	8e-\L]	.	.	.	.	8ee-/L]	8ee-\L]	.	8ee-/L]	8ee-\L]	.
.	.	.	.	8E-\	.	.	8E-/	.	.	8e-/	.	.	8e-/	-chy	.	8E-'/J	.	8e-'/J	.	8e-'/J	.	.	.	.	.	8E-\J	.	8E-/J	8E-\J	.	8e-/J	8e-\J	.	8e-/J	8e-\J	.	.	.	.	8e-/J	8e-\J	.	8e-/J	8e-\J	.
=63	=63	=63	=63	=63	=63	=63	=63	=63	=63	=63	=63	=63	=63	=63	=63	=63	=63	=63	=63	=63	=63	=63	=63	=63	=63	=63	=63	=63	=63	=63	=63	=63	=63	=63	=63	=63	=63	=63	=63	=63	=63	=63	=63	=63	=63
!	!	!	!	!	!	!	!	!	!	!	!	!	!	!	!	!	!LO:HP:a	!	!	!	!	!	!	!	!	!	!	!	!	!	!	!	!	!	!	!	!	!	!	!	!	!	!	!	!
4e-^\	.	4e-^\	.	2E-^\	.	.	2E-^/	.	.	2e-^/	.	.	2e-^/	nie-	.	4E-/	>	4e-^/	.	4e-^/	.	1r	.	1r	.	2E-^^\	.	2E-^^/	2E-\	.	2e-^^/	2e-\	.	2e-X^^/	2e-\	.	2EE-^^/	2EE-\	.	2e-^^/	2e-\	.	2e-^^/	2e-\	.
!LO:TX:b:i:t=divisi:color=blue	!	!LO:TX:b:i:t=divisi	!	!	!	!	!	!	!	!	!	!	!	!	!	!	!	!	!	!	!	!	!	!	!	!	!	!	!	!	!	!	!	!	!	!	!	!	!	!	!	!	!	!	!
4E-\	.	4E-'\	.	.	.	.	.	.	.	.	.	.	.	.	.	4E-'/	.	4r	.	4r	.	.	.	.	.	.	.	.	.	.	.	.	.	.	.	.	.	.	.	.	.	.	.	.	.
4E-\	.	4E-'\	.	2E-^\	.	.	2E-^/	.	.	2e-^/	.	.	2e-^/	-ru-	.	4E-'/	.	2r	.	2r	.	.	.	.	.	2E-^^\	.	2E-^^/	2E-\	.	2e-^^/	2e-\	.	2e-^^/	2e-\	.	2EE-^^/	2EE-\	.	2e-^^/	2e-\	.	2e-^^/	2e-\	.
4E-\	.	4E-'\	.	.	.	.	.	.	.	.	.	.	.	.	.	4E-'/	]	.	.	.	.	.	.	.	.	.	.	.	.	.	.	.	.	.	.	.	.	.	.	.	.	.	.	.	.
.	.	.	.	.	.	.	.	.	.	.	.	.	.	.	.	.	p	.	.	.	.	.	.	.	.	.	.	.	.	.	.	.	.	.	.	.	.	.	.	.	.	.	.	.	.
=64	=64	=64	=64	=64	=64	=64	=64	=64	=64	=64	=64	=64	=64	=64	=64	=64	=64	=64	=64	=64	=64	=64	=64	=64	=64	=64	=64	=64	=64	=64	=64	=64	=64	=64	=64	=64	=64	=64	=64	=64	=64	=64	=64	=64	=64
!	!LO:DY:color=blue	!	!	!	!	!	!	!	!	!	!	!	!	!	!	!	!	!	!	!	!	!	!	!LO:TX:a:i:t=Solo:color=blue	!	!	!	!	!	!	!	!	!LO:DY:rj:t=sff	!	!	!LO:DY:rj:t=sff	!	!	!LO:DY:rj:t=sff	!	!	!LO:DY:rj:t=sff	!	!	!LO:DY:rj:t=sff
4E-\	p	1BB-^>	p	[1E-^	.	.	[>1E-^	.	.	[>1e-^	.	.	[>1e-^	-cho-	.	[>1G-^	.	1r	.	1r	.	1r	.	[>1EE-	fp	2EE-/	.	2E-/	2E-\	.	[1e-	[>1e-	sf	[1e-X	[1e-	sf	[1EE-	[>1EE-	sf	(1e-	(>1e-	sf	[1e-	[>1e-	sf
!	!	!	!	!	!	!	!	!	!	!	!	!	!	!	!	!	!	!	!	!	!	!	!	!	!	!	!	!	!	!	!	!	!	!	!	!	!	!	!	!	!	!	!	!	!LO:HP:a
4E-\	.	.	.	.	.	.	.	.	.	.	.	.	.	.	.	.	.	.	.	.	.	.	.	.	.	.	.	.	.	.	.	.	>	.	.	>	.	.	>	.	.	>	.	.	>
4E-\	.	.	.	.	.	.	.	.	.	.	.	.	.	.	.	.	.	.	.	.	.	.	.	.	.	2r	.	2r	2rBByy	.	.	.	.	.	.	.	.	.	.	.	.	.	.	.	.
4E-\	.	.	.	.	.	.	.	.	.	.	.	.	.	.	.	.	.	.	.	.	.	.	.	.	.	.	.	.	.	.	.	.	]]	.	.	]]	.	.	]]	.	.	]]	.	.	]] p
*	*	*	*	*	*	*	*	*	*	*	*	*	*	*	*	*	*	*	*	*	*	*	*	*	*	*	*	*v	*v	*	*	*	*	*	*	*	*	*	*	*	*	*	*	*	*
=65	=65	=65	=65	=65	=65	=65	=65	=65	=65	=65	=65	=65	=65	=65	=65	=65	=65	=65	=65	=65	=65	=65	=65	=65	=65	=65	=65	=65	=65	=65	=65	=65	=65	=65	=65	=65	=65	=65	=65	=65	=65	=65	=65	=65
!	!	!LO:TX:b:i:t=Col CB	!	!	!	!	!	!	!	!	!	!	!	!	!	!	!	!	!	!	!	!	!	!	!	!	!	!	!	!	!	!	!LO:ACC:color=blue	!LO:ACC:color=blue	!	!	!	!	!	!	!	!	!	!
4E-\	.	4E-\yy	.	4E-\]	.	.	4E-/]	.	.	4e-/]	.	.	4e-/]	-my	.	4G-/]	.	2r	.	2r	.	1r	.	1EE-]	.	1r	.	1r	.	4e-/]	4e-\]	]	4e-X/]	4e-X\]	.	4EE-/]	4EE-\]	.	4e-/)	4e-\)	.	4e-/]	4e-/]	.
4D-'/	.	4D-'/yy	.	4r	.	.	4r	.	.	4r	.	.	4r	.	.	4r	p	.	p	.	p	.	.	.	.	.	.	.	.	4r	4reyy	.	4r	4rFyy	.	4r	4ryy	p	4r	4rByy	p	4r	4rcyy	.
!	!	!	!	!	!	!LO:DY:rj	!	!	!LO:DY:rj	!	!	!LO:DY:rj	!	!	!LO:DY:rj	!	!	!	!	!	!	!	!	!	!	!	!	!	!	!	!	!	!	!	!	!	!	!	!	!	!	!	!	!
4C'/	.	4C'/yy	.	4C'/	.	p	4G-'/	.	p	4e-'/	.	p	4e-'/	cza-	p	4G-|/	.	4e-'/	.	4e-'/	.	.	.	.	.	.	.	.	.	2r	2reyy	.	2r	2rFyy	.	4G-'</	2r	.	4e-'/	2rB	.	2r	2rcyy	.
4BB-'/	.	4BB-'/yy	.	4BB-'/	.	.	4E-'/	.	.	4e-'/	.	.	4g-'/	-tyr-	.	4E-|/	.	4e-'/	.	4g-'/	.	.	.	.	pp	.	.	.	.	.	.	.	.	.	.	4E-'</	.	.	4g-'/	.	.	.	.	.
.	.	.	.	.	.	.	.	.	.	.	.	.	.	.	.	.	.	.	.	.	.	.	p	.	.	.	.	.	.	.	.	p	.	.	p	.	.	p	.	.	.	.	.	.
*	*	*	*	*	*	*	*	*	*	*	*	*	*	*	*	*	*	*	*	*	*	*	*	*	*	*	*	*	*	*v	*v	*	*	*	*	*	*	*	*	*	*	*v	*v	*
*	*	*	*	*	*	*	*	*	*	*	*	*	*	*	*	*	*	*	*	*	*	*	*	*	*	*	*	*	*	*clefF4	*	*	*	*	*	*	*	*	*	*	*	*
=66	=66	=66	=66	=66	=66	=66	=66	=66	=66	=66	=66	=66	=66	=66	=66	=66	=66	=66	=66	=66	=66	=66	=66	=66	=66	=66	=66	=66	=66	=66	=66	=66	=66	=66	=66	=66	=66	=66	=66	=66	=66	=66
4AAn/	.	4AAn/yy	.	1AAn	.	.	1E-	.	.	1c	.	.	1f	-da-	.	1F^	.	1c^	.	1f^	.	1E-yTT	.	[>1EE-	.	1r	.	1r	.	[1E- [1EE-	.	(1F	1rF	.	((1C	1AAn	.	(1f	1r@	.	1r	.
4FF/	.	4FF/yy	.	.	.	.	.	.	.	.	.	.	.	.	.	.	.	.	.	.	.	.	.	.	.	.	.	.	.	.	.	.	.	.	.	.	.	.	.	.	.	.
4GGn/	.	4GGn/yy	.	.	.	.	.	.	.	.	.	.	.	.	.	.	.	.	.	.	.	.	.	.	.	.	.	.	.	.	.	.	.	.	.	.	.	.	.	.	.	.
4AA/	.	4AA/yy	.	.	.	.	.	.	.	.	.	.	.	.	.	.	.	.	.	.	.	.	.	.	.	.	.	.	.	.	.	.	.	.	.	.	.	.	.	.	.	.
*	*	*	*	*	*	*	*	*	*	*	*	*	*	*	*	*	*	*	*	*	*	*	*	*	*	*	*	*	*	*	*	*v	*v	*	*	*	*	*	*	*	*	*
=67	=67	=67	=67	=67	=67	=67	=67	=67	=67	=67	=67	=67	=67	=67	=67	=67	=67	=67	=67	=67	=67	=67	=67	=67	=67	=67	=67	=67	=67	=67	=67	=67	=67	=67	=67	=67	=67	=67	=67	=67	=67
*	*	*	*	*	*	*	*	*	*	*	*	*	*	*	*	*	*	*	*	*	*	*	*	*rep	*	*	*	*	*	*	*	*	*	*	*	*	*	*	*	*	*
4BB-/	.	4BB-/yy	.	4BB-/	.	.	4G-/	.	.	4e-/	.	.	4e-/	-hu!	.	4G-/	.	4B-/	.	4e-/	.	4E-y\	.	1EE-_>	.	1r	.	1r	.	4E-] 4EE-/]	.	4G-X/)	.	4E- 4BB-/))	1rEE	.	4e-/)	1r@	.	1r	.
4D-/	.	4D-/yy	.	4r	.	.	4r	.	.	4r	.	.	4r	.	.	4r	.	4r	.	4r	.	4r	.	.	.	.	.	.	.	4r	.	4r	.	4r	.	.	4rd	.	.	.	.
4C/	.	4C/yy	.	4C'/	.	.	4G-'/	.	.	4e-'/	.	.	4e-'/	cza-	.	4G-'/	.	4e-'/	.	4e-'/	.	2r	.	.	.	.	.	.	.	2r	.	2r	.	4G-'</	.	.	4e-'/	.	.	.	.
4BB-/	.	4BB-/yy	.	4BB-'/	.	.	4E-'/	.	.	4e-'/	.	.	4g-'/	-tyr-	.	4E-'/	.	4e-'/	.	4g-'/	.	.	.	.	.	.	.	.	.	.	.	.	.	4E-'</	.	.	4g-'/	.	.	.	.
*	*	*	*	*	*	*	*	*	*	*	*	*	*	*	*	*	*	*	*	*	*	*	*	*Xrep	*	*	*	*	*	*	*	*	*	*	*	*	*	*	*	*	*
=68	=68	=68	=68	=68	=68	=68	=68	=68	=68	=68	=68	=68	=68	=68	=68	=68	=68	=68	=68	=68	=68	=68	=68	=68	=68	=68	=68	=68	=68	=68	=68	=68	=68	=68	=68	=68	=68	=68	=68	=68	=68
*	*	*	*	*	*	*	*	*	*	*	*	*	*	*	*	*	*	*	*	*	*	*	*	*	*	*	*	*	*	*	*	*^	*	*	*	*	*	*	*	*	*
*	*	*	*	*	*	*	*	*	*	*	*	*	*	*	*	*	*	*	*	*	*	*	*	*rep	*	*	*	*	*	*	*	*	*	*	*	*	*	*	*	*	*	*
!	!	!	!	!	!	!	!	!	!	!	!	!	!	!	!	!	!	!	!	!LO:ART:color=blue	!	!	!	!	!	!	!	!	!	!	!	!	!	!	!	!	!	!	!	!	!	!
4AAn/	.	4AAn/yy	.	1AAn	.	.	1E-	.	.	1c	.	.	1f	-da-	.	1F^	.	1c^	.	1f^	.	1E-yTT	.	1EE-_>	.	1r	.	1r	.	[1E- [1EE-	.	(1F	1r@	.	(1C	(1AAn	.	(1f	1r@	.	1r	.
4FF/	.	4FF/yy	.	.	.	.	.	.	.	.	.	.	.	.	.	.	.	.	.	.	.	.	.	.	.	.	.	.	.	.	.	.	.	.	.	.	.	.	.	.	.	.
!LO:ACC:color=blue	!	!LO:ACC:color=blue	!	!	!	!	!	!	!	!	!	!	!	!	!	!	!	!	!	!	!	!	!	!	!	!	!	!	!	!	!	!	!	!	!	!	!	!	!	!	!	!
4GGn/	.	4GGn/yy	.	.	.	.	.	.	.	.	.	.	.	.	.	.	.	.	.	.	.	.	.	.	.	.	.	.	.	.	.	.	.	.	.	.	.	.	.	.	.	.
4AA/	.	4AA/yy	.	.	.	.	.	.	.	.	.	.	.	.	.	.	.	.	.	.	.	.	.	.	.	.	.	.	.	.	.	.	.	.	.	.	.	.	.	.	.	.
*	*	*	*	*	*	*	*	*	*	*	*	*	*	*	*	*	*	*	*	*	*	*	*	*Xrep	*	*	*	*	*	*	*	*	*	*	*	*	*	*	*	*	*	*
=69	=69	=69	=69	=69	=69	=69	=69	=69	=69	=69	=69	=69	=69	=69	=69	=69	=69	=69	=69	=69	=69	=69	=69	=69	=69	=69	=69	=69	=69	=69	=69	=69	=69	=69	=69	=69	=69	=69	=69	=69	=69	=69
*	*	*	*	*	*	*	*	*	*	*	*	*	*	*	*	*	*	*	*	*	*	*	*	*rep	*	*	*	*	*	*	*	*	*	*	*	*	*	*	*	*	*	*
4BB-/	.	4BB-/yy	.	8BB-/	.	.	8G-/	.	.	8e-/	.	.	8e-/	-hu	.	4G-/	.	4B-/	.	4e-/	.	4E-y\	.	1EE-]	.	1r	.	1r	.	4E-] 4EE-/]	.	4G-X/)	1r@	.	4E-/)	4BB-\)	.	4e-/)	4rB	.	1r	.
!	!	!	!	!	!	!	!	!	!	!	!	!	!	!	!	!	!	!	!	!	!	!	!	!	!	!	!	!	!	!	!	!	!	!	!	!	!	!	!	!LO:DY:a	!	!
.	.	.	.	8r	.	.	8r	.	.	8r	.	.	8r	.	.	.	.	.	.	.	.	.	.	.	.	.	.	.	.	.	.	.	.	.	.	.	p	.	.	p	.	.
4Dn^\	.	4Dn^\yy	.	4Dn^\	.	.	4Dn^/	.	.	4dn^/	.	.	4dn^/	Ty	.	4r	.	4r	.	4dn^/	.	4r	.	.	.	.	.	.	.	4r	.	4r	.	.	4Dn'/	4Dn\	.	4dn'/	4dn\	.	.	.
4E-^\	.	4E-^\yy	.	4E-^\	.	.	4E-^/	.	.	4e-^/	.	.	4e-^/	zaw-	.	2r	.	2r	.	4e-^/	.	2r	.	.	.	.	.	.	.	2r	.	2r	.	.	4E-'/	4E-\	.	4e-'/	4e-\	.	.	.
4F^\	.	4F^\yy	.	4F^\	.	.	4F^/	.	.	4f^/	.	.	4f^/	-sze	.	.	.	.	.	4f^/	.	.	.	.	.	.	.	.	.	.	.	.	.	.	4F'/	4F\	.	4f'/	4f\	.	.	.
*	*	*	*	*	*	*	*	*	*	*	*	*	*	*	*	*	*	*	*	*	*	*	*	*Xrep	*	*	*	*	*	*	*	*	*	*	*	*	*	*	*	*	*	*
*	*	*	*	*	*	*	*	*	*	*	*	*	*	*	*	*	*	*	*	*	*	*	*	*	*	*	*	*	*	*	*	*v	*v	*	*	*	*	*	*	*	*	*
!!LO:PB:g=original
=70	=70	=70	=70	=70	=70	=70	=70	=70	=70	=70	=70	=70	=70	=70	=70	=70	=70	=70	=70	=70	=70	=70	=70	=70	=70	=70	=70	=70	=70	=70	=70	=70	=70	=70	=70	=70	=70	=70	=70	=70	=70
!LO:ACC:color=blue	!	!LO:ACC:color=blue	!	!	!	!	!	!	!	!	!	!	!	!	!	!	!	!	!	!	!	!	!	!	!	!	!	!	!	!	!	!	!	!	!	!	!	!	!	!	!
1G-X	.	4G-X\	.	[2.G-\	.	.	[2.G-/	.	.	[2.g-/	nie-	.	2.g-/	.	.	4g-^\	.	1r	.	2.g-^/	.	1r	.	1r	.	1r	.	1r	.	1r	.	1r	.	[2.G-^</	[>2.G-\	.	[2.g-^/	[>2.g-\	.	1r	.
.	.	4G-'\	.	.	.	.	.	.	.	.	.	.	.	.	.	4G-'/	.	.	.	.	.	.	.	.	.	.	.	.	.	.	.	.	.	.	.	.	.	.	.	.	.
.	.	4G-'\	.	.	.	.	.	.	.	.	.	.	.	.	.	4G-'/	.	.	.	.	.	.	.	.	.	.	.	.	.	.	.	.	.	.	.	.	.	.	.	.	.
.	.	8G-'\L	.	8G-\]	.	.	8G-/]	.	.	8g-/]	.	.	4r	.	.	8G-'/L	.	.	.	4r	.	.	.	.	.	.	.	.	.	.	.	.	.	8G-/L]	8G-\L]	.	8g-/L]	8g-\L]	.	.	.
.	.	8G-'\J	.	8GG-/	.	.	8G-/	.	.	8G-/	-my	.	.	.	.	8G-'/J	.	.	.	.	.	.	.	.	.	.	.	.	.	.	.	.	.	8GG-/J	8GG-\J	.	8G-/J	8G-\J	.	.	.
=71	=71	=71	=71	=71	=71	=71	=71	=71	=71	=71	=71	=71	=71	=71	=71	=71	=71	=71	=71	=71	=71	=71	=71	=71	=71	=71	=71	=71	=71	=71	=71	=71	=71	=71	=71	=71	=71	=71	=71	=71	=71
4G-^\	.	4G-^\	.	2GG-^>/	.	.	2G-^/	.	.	2G-^>/	nie-	.	1r	.	.	4G-^/	.	1r	.	1r	.	1r	.	1ryy	.	1ryy	.	1ryy	.	1ryy	.	1ryy	.	2GG-^^/	2GG-\	.	2G-^^/	2G-\	.	1ryy	.
4GG-/	.	4GG-/	.	.	.	.	.	.	.	.	.	.	.	.	.	4r	.	.	.	.	.	.	.	.	.	.	.	.	.	.	.	.	.	.	.	.	.	.	.	.	.
4GG-/	.	4GG-/	.	2GG-^>/	.	.	2G-^/	.	.	2G-^>/	-ru-	.	.	.	.	2r	.	.	.	.	.	.	.	.	.	.	.	.	.	.	.	.	.	2GG-^^/	2GG-\	.	2G-^^/	2G-\	.	.	.
!	!LO:DY:color=blue	!	!	!	!	!	!	!	!	!	!	!	!	!	!	!	!	!	!	!	!	!	!	!	!	!	!	!	!	!	!	!	!	!	!	!	!	!	!	!	!
4GG-/	pp	8GG-/L	.	.	.	.	.	.	.	.	.	.	.	.	.	.	.	.	.	.	.	.	.	.	.	.	.	.	.	.	.	.	.	.	.	.	.	.	.	.	.
.	.	8GG-/J	pp	.	.	.	.	.	.	.	.	.	.	.	.	.	pp	.	pp	.	.	.	.	.	.	.	.	.	.	.	.	.	.	.	.	.	.	.	.	.	.
=72	=72	=72	=72	=72	=72	=72	=72	=72	=72	=72	=72	=72	=72	=72	=72	=72	=72	=72	=72	=72	=72	=72	=72	=72	=72	=72	=72	=72	=72	=72	=72	=72	=72	=72	=72	=72	=72	=72	=72	=72	=72
2GG-/	.	2GG-/	.	1GG-^>	.	.	1G-^	.	.	1G-^>	-cho-	.	1r	.	.	[>1E-	.	[>1B-	.	1r	.	1r	.	1ryy	.	1ryy	.	1ryy	.	1ryy	.	1ryy	.	[1GG-^^	[>1GG-	.	[1G-^^	[>1G-	.	1ryy	.
4GG-/	.	4GG-/	.	.	.	.	.	.	.	.	.	.	.	.	.	.	.	.	.	.	.	.	.	.	.	.	.	.	.	.	.	.	.	.	.	.	.	.	.	.	.
!	!	!	!	!LO:TX:a:i:t=quasi Recit	!	!	!	!	!	!	!	!	!	!	!	!	!	!	!	!	!	!LO:TX:a:i:t=Solo	!	!	!	!	!	!	!	!	!	!	!	!	!	!	!	!	!	!	!
4GG-/	.	4GG-/	.	.	.	.	.	.	.	.	.	.	.	.	.	.	.	.	.	.	.	.	pp	.	.	.	.	.	.	.	.	.	.	.	.	.	.	.	.	.	.
=73	=73	=73	=73	=73	=73	=73	=73	=73	=73	=73	=73	=73	=73	=73	=73	=73	=73	=73	=73	=73	=73	=73	=73	=73	=73	=73	=73	=73	=73	=73	=73	=73	=73	=73	=73	=73	=73	=73	=73	=73	=73
!LO:TX:b:t=O:color=red	!	!	!	!	!	!	!	!	!	!	!	!	!	!	!	!	!	!	!	!	!	!	!	!	!	!	!	!	!	!	!	!	!	!	!	!	!	!	!	!LO:TX:a:t=O:color=red	!
4GG-/	.	4GG-/	.	4GG-/	.	.	4G-/	.	.	4G-/	-my	.	1r	.	.	4E-/]	.	4B-/]	.	1r	.	1BB-yTT	.	1ryy	.	1ryy	.	1ryy	.	1ryy	.	1ryy	.	4GG-/]	4GG-\]	.	4G-/]	4G-\]	.	1ryy	.
!	!	!	!	!	!	!	!	!	!	!LO:TX:a:i:t=quasi Recit	!	!	!	!	!	!	!	!	!	!	!	!	!	!	!	!	!	!	!	!	!	!	!	!	!	!	!	!	!	!	!
4r	.	4r	.	4r	.	.	4r	.	.	4r	.	.	.	.	.	4r	.	4r	.	.	.	.	.	.	.	.	.	.	.	.	.	.	.	4r	4rEEyy	.	4r	4rByy	.	.	.
2r	.	2BB-^/	.	4BB-/	.	.	2r	.	.	4B-/	mię-	f	.	.	.	2B-^/	.	2r	.	.	.	.	.	.	.	.	.	.	.	.	.	.	.	2r	2rEEyy	.	2r	2rByy	.	.	.
.	.	.	.	4BB-/	.	.	.	.	.	4B-/	-dzy	.	.	.	.	.	.	.	.	.	.	.	.	.	.	.	.	.	.	.	.	.	.	.	.	.	.	.	.	.	.
*	*	*	*	*	*	*	*	*	*	*	*	*	*	*	*	*	*	*	*	*	*	*	*	*	*	*	*	*	*	*	*	*	*	*v	*v	*	*	*	*	*	*
*	*	*	*	*	*	*	*	*	*	*	*	*	*	*	*	*	*	*	*	*	*	*	*	*	*	*	*	*	*	*	*	*	*	*	*	*v	*v	*	*	*
=74	=74	=74	=74	=74	=74	=74	=74	=74	=74	=74	=74	=74	=74	=74	=74	=74	=74	=74	=74	=74	=74	=74	=74	=74	=74	=74	=74	=74	=74	=74	=74	=74	=74	=74	=74	=74	=74	=74	=74
*	*	*	*	*	*	*	*	*	*	*	*	*	*	*	*	*	*	*	*	*	*	*rep	*	*	*	*	*	*	*	*	*	*	*	*	*	*	*	*	*
1r	.	2E-^\	.	2E-^\	.	.	1r	.	.	2e-^/	świa-	.	1r	.	.	2e-^\	.	1r	.	1r	.	1BB-yTTT	.	1ryy	.	1ryy	.	1ryy	.	1ryy	.	1ryy	.	1ryy	.	1ryy	.	1ryy	.
.	.	4.BB-^/	.	4.BB-/	.	.	.	.	.	4.B-/	-tem	.	.	.	.	4.B-^\	.	.	.	.	.	.	.	.	.	.	.	.	.	.	.	.	.	.	.	.	.	.	.
.	.	8E-\	.	8E-\	.	.	.	.	.	8e-/	i	.	.	.	.	8e-\	.	.	.	.	.	.	.	.	.	.	.	.	.	.	.	.	.	.	.	.	.	.	.
*	*	*	*	*	*	*	*	*	*	*	*	*	*	*	*	*	*	*	*	*	*	*Xrep	*	*	*	*	*	*	*	*	*	*	*	*	*	*	*	*	*
=75	=75	=75	=75	=75	=75	=75	=75	=75	=75	=75	=75	=75	=75	=75	=75	=75	=75	=75	=75	=75	=75	=75	=75	=75	=75	=75	=75	=75	=75	=75	=75	=75	=75	=75	=75	=75	=75	=75	=75
*	*	*	*	*	*	*	*	*	*	*	*	*	*	*	*	*	*	*	*	*	*	*rep	*	*	*	*	*	*	*	*	*	*	*	*	*	*	*	*	*
1r	.	4G-^\	.	2G-^\	.	.	1r	.	.	2g-^/	nie-	.	1r	.	.	4g-^\	.	1r	.	1r	.	1BB-yTTT	.	1ryy	.	1ryy	.	1ryy	.	1ryy	.	1ryy	.	1ryy	.	1ryy	.	1ryy	.
.	.	4r	.	.	.	.	.	.	.	.	.	.	.	.	.	4r	.	.	.	.	.	.	.	.	.	.	.	.	.	.	.	.	.	.	.	.	.	.	.
.	.	4.G-^\	.	4.G-\@	.	.	.	.	.	4g-/	-bem,	.	.	.	.	4.g-^\	.	.	.	.	.	.	.	.	.	.	.	.	.	.	.	.	.	.	.	.	.	.	.
.	.	.	.	.	.	.	.	.	.	8r	.	.	.	.	.	.	.	.	.	.	.	.	.	.	.	.	.	.	.	.	.	.	.	.	.	.	.	.	.
.	.	8A-\	.	8A-\@	.	.	.	.	.	8a-/	jak	.	.	.	.	8a-\	.	.	.	.	.	.	.	.	.	.	.	.	.	.	.	.	.	.	.	.	.	.	.
*	*	*	*	*	*	*	*	*	*	*	*	*	*	*	*	*	*	*	*	*	*	*Xrep	*	*	*	*	*	*	*	*	*	*	*	*	*	*	*	*	*
=76	=76	=76	=76	=76	=76	=76	=76	=76	=76	=76	=76	=76	=76	=76	=76	=76	=76	=76	=76	=76	=76	=76	=76	=76	=76	=76	=76	=76	=76	=76	=76	=76	=76	=76	=76	=76	=76	=76	=76
*	*	*	*	*	*	*	*	*	*	*	*	*	*	*	*	*	*	*	*	*	*	*rep	*	*	*	*	*	*	*	*	*	*	*	*	*	*	*	*	*
1r	.	2B-^\	.	2B-^\	.	.	1r	.	.	2a-^/	drog-	.	1r	.	.	2b-^\	.	1r	.	1r	.	1BB-yTTT	.	1ryy	.	1ryy	.	1ryy	.	1ryy	.	1ryy	.	1ryy	.	1ryy	.	1ryy	.
.	.	4.A-^\	.	4.A-\	.	.	.	.	.	4.a-/	-man	.	.	.	.	4.a-^\	.	.	.	.	.	.	.	.	.	.	.	.	.	.	.	.	.	.	.	.	.	.	.
!	!	!	!	!	!	!	!LO:TX:a:i:t=quasi Recit.	!	!	!	!	!	!LO:TX:a:i:t=quasi Recit	!	!	!	!	!	!	!	!	!	!	!	!	!	!	!	!	!	!	!	!	!	!	!	!	!	!
.	.	8B-\	.	8B-\	.	.	.	.	.	8b-/	stwo-	.	.	.	.	8b-\	.	.	.	.	.	.	.	.	.	.	.	.	.	.	.	.	.	.	.	.	.	.	.
*	*	*	*	*	*	*	*	*	*	*	*	*	*	*	*	*	*	*	*	*	*	*Xrep	*	*	*	*	*	*	*	*	*	*	*	*	*	*	*	*	*
=77	=77	=77	=77	=77	=77	=77	=77	=77	=77	=77	=77	=77	=77	=77	=77	=77	=77	=77	=77	=77	=77	=77	=77	=77	=77	=77	=77	=77	=77	=77	=77	=77	=77	=77	=77	=77	=77	=77	=77
*	*	*	*	*	*	*	*	*	*	*	*	*	*	*	*	*	*	*	*	*	*	*rep	*	*	*	*	*	*	*	*	*	*	*	*	*	*	*	*	*
1r	.	(4A-^\	.	4A-\	.	.	2r	.	.	4a-/	-rze-	.	2r	.	.	(4a-^\	.	1r	.	2r	.	1BB-yTTT	.	1r	.	1r	.	1r	.	1r	.	1r	.	1r	.	1r	.	1r	.
.	.	8G-\)	.	8G-\	.	.	.	.	.	8g-/	-nia	.	.	.	.	4g-\)	.	.	.	.	.	.	.	.	.	.	.	.	.	.	.	.	.	.	.	.	.	.	.
.	.	8r	.	8r	.	.	.	.	.	8r	.	.	.	.	.	.	.	.	.	.	.	.	.	.	.	.	.	.	.	.	.	.	.	.	.	.	.	.	.
!	!	!	!	!	!	!	!	!	!LO:DY:rj	!	!	!	!	!	!	!	!	!	!	!	!	!	!	!	!	!	!	!	!	!	!	!	!	!	!	!	!	!	!
.	.	2E-^\	.	2r	.	.	4E-/	.	f	2r	.	.	4e-/	po-	f	2r	.	.	.	2e-^/	.	.	.	.	.	.	.	.	.	.	.	.	.	.	.	.	.	.	.
.	.	.	.	.	.	.	4E-/	.	.	.	.	.	4e-/	-de-	.	.	.	.	.	.	.	.	.	.	.	.	.	.	.	.	.	.	.	.	.	.	.	.	.
*	*	*	*	*	*	*	*	*	*	*	*	*	*	*	*	*	*	*	*	*	*	*Xrep	*	*	*	*	*	*	*	*	*	*	*	*	*	*	*	*	*
!!LO:PB:g=original
=78	=78	=78	=78	=78	=78	=78	=78	=78	=78	=78	=78	=78	=78	=78	=78	=78	=78	=78	=78	=78	=78	=78	=78	=78	=78	=78	=78	=78	=78	=78	=78	=78	=78	=78	=78	=78	=78	=78	=78
*	*	*	*	*	*	*	*	*	*	*	*	*	*	*	*	*	*	*	*	*	*	*rep	*	*	*	*	*	*	*	*	*	*	*	*	*	*	*	*	*
1r	.	2G-^\	.	1r	.	.	2G-/	.	.	1r	.	.	2g-^/	-sław-	.	1r	.	1r	.	2g-^/	.	1BB-yTTT	.	1r	.	1r	.	1r	.	1r	.	1r	.	1r	.	1r	.	1ryy	.
.	.	4.E-^\	.	.	.	.	4.E-/	.	.	.	.	.	4.e-/	-szy	.	.	.	.	.	4.e-^/	.	.	.	.	.	.	.	.	.	.	.	.	.	.	.	.	.	.	.
.	.	8G-\	.	.	.	.	8G-/	.	.	.	.	.	8g-/	pod	.	.	.	.	.	8g-/	.	.	.	.	.	.	.	.	.	.	.	.	.	.	.	.	.	.	.
*	*	*	*	*	*	*	*	*	*	*	*	*	*	*	*	*	*	*	*	*	*	*Xrep	*	*	*	*	*	*	*	*	*	*	*	*	*	*	*	*	*
=79	=79	=79	=79	=79	=79	=79	=79	=79	=79	=79	=79	=79	=79	=79	=79	=79	=79	=79	=79	=79	=79	=79	=79	=79	=79	=79	=79	=79	=79	=79	=79	=79	=79	=79	=79	=79	=79	=79	=79
*	*	*	*	*	*	*	*	*	*	*	*	*	*	*	*	*	*	*	*	*	*	*rep	*	*	*	*	*	*	*	*	*	*	*	*	*	*	*	*	*
1r	.	4B-\	.	1r	.	.	4B-\	.	.	1r	.	.	4b-\	no-	.	1r	.	1r	.	4b-/	.	1BB-yTTT	.	1ryy	.	1ryy	.	1ryy	.	1ryy	.	1ryy	.	1ryy	.	1ryy	.	1ryy	.
.	.	4r	.	.	.	.	8B-\	.	.	.	.	.	8b-\	-gi	.	.	.	.	.	4r	.	.	.	.	.	.	.	.	.	.	.	.	.	.	.	.	.	.	.
.	.	.	.	.	.	.	8r	.	.	.	.	.	8r	.	.	.	.	.	.	.	.	.	.	.	.	.	.	.	.	.	.	.	.	.	.	.	.	.	.
.	.	4.B-^\	.	.	.	.	4.B-^\	.	.	.	.	.	4.b-^\	zie-	.	.	.	.	.	4.b-^\	.	.	.	.	.	.	.	.	.	.	.	.	.	.	.	.	.	.	.
.	.	8c\	.	.	.	.	8c\	.	.	.	.	.	8cc\	-mię	.	.	.	.	.	8cc\	.	.	.	.	.	.	.	.	.	.	.	.	.	.	.	.	.	.	.
*	*	*	*	*	*	*	*	*	*	*	*	*	*	*	*	*	*	*	*	*	*	*Xrep	*	*	*	*	*	*	*	*	*	*	*	*	*	*	*	*	*
=80	=80	=80	=80	=80	=80	=80	=80	=80	=80	=80	=80	=80	=80	=80	=80	=80	=80	=80	=80	=80	=80	=80	=80	=80	=80	=80	=80	=80	=80	=80	=80	=80	=80	=80	=80	=80	=80	=80	=80
*	*	*	*	*	*	*	*	*	*	*	*	*	*	*	*	*	*	*	*	*	*	*rep	*	*	*	*	*	*	*	*	*	*	*	*	*	*	*	*	*
1r	.	2d-^\	.	1r	.	.	2d-^\	.	.	1r	.	.	2dd-^\	lu-	.	1r	.	1r	.	2dd-^\	.	1BB-yTTT	.	1ryy	.	1ryy	.	1ryy	.	1ryy	.	1ryy	.	1ryy	.	1ryy	.	1ryy	.
.	.	4.c\	.	.	.	.	4.c\	.	.	.	.	.	4.cc\	-dzi	.	.	.	.	.	4.cc\	.	.	.	.	.	.	.	.	.	.	.	.	.	.	.	.	.	.	.
.	.	8d-\	.	.	.	.	8d-\	.	.	.	.	.	8dd-\	i	.	.	.	.	.	8dd-\	.	.	.	.	.	.	.	.	.	.	.	.	.	.	.	.	.	.	.
*	*	*	*	*	*	*	*	*	*	*	*	*	*	*	*	*	*	*	*	*	*	*Xrep	*	*	*	*	*	*	*	*	*	*	*	*	*	*	*	*	*
=81	=81	=81	=81	=81	=81	=81	=81	=81	=81	=81	=81	=81	=81	=81	=81	=81	=81	=81	=81	=81	=81	=81	=81	=81	=81	=81	=81	=81	=81	=81	=81	=81	=81	=81	=81	=81	=81	=81	=81
*	*	*	*	*	*	*	*	*	*	*	*	*	*	*	*	*	*	*	*	*	*	*rep	*	*	*	*	*	*	*	*	*	*	*	*	*	*	*	*	*
1r	.	1B-	.	1r	.	.	2.B-/	.	.	1r	.	.	2.b-\	gro-	.	1r	.	1r	.	1b-	.	1BB-yTTT	.	1r	.	1r	.	1r	.	1r	.	1r	.	1r	.	1r	.	1r	.
!	!LO:DY:t=pp.	!LO:TX:a:i:t=piu lento.	!LO:DY:t=pp.	!	!	!LO:DY:t=pp.	!	!	!	!	!	!LO:DY:b:t=pp.	!	!	!	!	!LO:DY:t=pp.	!	!LO:DY:t=pp.	!LO:TX:a:i:t=piu lento.	!LO:DY:t=pp.	!	!	!	!	!	!	!	!	!	!	!	!	!	!	!	!	!	!
.	pp	.	pp	.	.	pp	4G-/	.	pp	.	.	pp	4b-\	-my	.	.	pp	.	pp	.	pp	.	.	.	.	.	.	.	.	.	.	.	.	.	pp	.	.	.	.
*	*	*	*	*	*	*	*	*	*	*	*	*	*	*	*	*	*	*	*	*	*	*Xrep	*	*	*	*	*	*	*	*	*	*	*	*	*	*	*	*	*
=82	=82	=82	=82	=82	=82	=82	=82	=82	=82	=82	=82	=82	=82	=82	=82	=82	=82	=82	=82	=82	=82	=82	=82	=82	=82	=82	=82	=82	=82	=82	=82	=82	=82	=82	=82	=82	=82	=82	=82
*	*	*	*	*	*	*	*	*	*	*	*	*	*	*	*	*	*	*	*	*	*	*rep	*	*	*	*	*	*	*	*	*	*	*	*	*	*	*	*	*
!	!	!	!	!	!	!	!	!	!	!	!	!	!	!	!LO:DY:b:rj	!	!	!	!	!	!	!	!	!	!	!	!	!	!	!	!	!	!	!	!	!	!	!LO:TX:a:i:t=piu lento.	!
1GG-	.	1GG-	.	2GG-/	.	.	2F-X/	.	.	2d-/	.	.	2b-\	słu-	pp	[>1F-X	.	[>1d-	.	[1b- [>1B-	.	1BB-yTTT	.	1r	.	1r	.	1r	.	1r	.	1r	.	[1D- [>1BB-	.	1r	.	1r	.
.	.	.	.	4GG-/	.	.	4F-/	.	.	4d-/	.	.	4b-\	-chasz	.	.	.	.	.	.	.	.	.	.	.	.	.	.	.	.	.	.	.	.	.	.	.	.	.
.	.	.	.	4GG-/	.	.	4F-/	.	.	4d-/	.	.	4b-\	co	.	.	.	.	.	.	.	.	.	.	.	.	.	.	.	.	.	.	.	.	.	.	.	.	.
*	*	*	*	*	*	*	*	*	*	*	*	*	*	*	*	*	*	*	*	*	*	*Xrep	*	*	*	*	*	*	*	*	*	*	*	*	*	*	*	*	*
=83	=83	=83	=83	=83	=83	=83	=83	=83	=83	=83	=83	=83	=83	=83	=83	=83	=83	=83	=83	=83	=83	=83	=83	=83	=83	=83	=83	=83	=83	=83	=83	=83	=83	=83	=83	=83	=83	=83	=83
*	*	*	*	*	*	*	*	*	*	*	*	*	*	*	*	*	*	*	*	*	*	*rep	*	*	*	*	*	*	*	*	*	*	*	*	*	*	*	*	*
(4.GG-^/	.	(4.GG-^/	.	2.GG-/	.	.	2.F-X/	.	.	2.d-/	.	.	2.b-\	mó-	.	1F-X]	.	1d-]	.	1b-] 1B-]	.	1BB-yTTT	.	1ryy	.	1ryy	.	1ryy	.	1ryy	.	1ryy	.	1D-_ 1BB-_>	.	1ryy	.	1ryy	.
8GG-'/	.	8GG-'/	.	.	.	.	.	.	.	.	.	.	.	.	.	.	.	.	.	.	.	.	.	.	.	.	.	.	.	.	.	.	.	.	.	.	.	.	.
4GG-'/	.	4GG-'/	.	.	.	.	.	.	.	.	.	.	.	.	.	.	.	.	.	.	.	.	.	.	.	.	.	.	.	.	.	.	.	.	.	.	.	.	.
4GG-'/)	.	4GG-'/)	.	4GG-/	.	.	4F-/	.	.	4d-/	.	.	4b-\	-wi	.	.	.	.	.	.	.	.	.	.	.	.	.	.	.	.	.	.	.	.	.	.	.	.	.
*	*	*	*	*	*	*	*	*	*	*	*	*	*	*	*	*	*	*	*	*	*	*Xrep	*	*	*	*	*	*	*	*	*	*	*	*	*	*	*	*	*
=84	=84	=84	=84	=84	=84	=84	=84	=84	=84	=84	=84	=84	=84	=84	=84	=84	=84	=84	=84	=84	=84	=84	=84	=84	=84	=84	=84	=84	=84	=84	=84	=84	=84	=84	=84	=84	=84	=84	=84
*	*	*	*	*	*	*	*	*	*	*	*	*	*	*	*	*	*	*	*	*	*	*rep	*	*	*	*	*	*	*	*	*	*	*	*	*	*	*	*	*
1GG-	.	1GG-	.	4.GG-^/	.	.	4.F-X^/	.	.	4.d-^/	.	.	4.b-^\	Bóg	.	(4.F-X^/	.	(4.d-^/	.	(4.b-^/	.	1BB-yTTT	.	1ryy	.	1ryy	.	1ryy	.	1ryy	.	1ryy	.	4D-] 4BB-/]	.	1ryy	.	1ryy	.
.	.	.	.	.	.	.	.	.	.	.	.	.	.	.	.	.	.	.	.	.	.	.	.	.	.	.	.	.	.	.	.	.	.	4r	.	.	.	.	.
.	.	.	.	8GG-/	.	.	8F-/	.	.	8d-/	.	.	8b-\	do	.	8F-'/	.	8d-'/	.	8b-'/	.	.	.	.	.	.	.	.	.	.	.	.	.	.	.	.	.	.	.
.	.	.	.	4GG-/	.	.	4F-/	.	.	4d-/	.	.	4b-\	przy-	.	4F-'/	.	4d-'/	.	4b-'/	.	.	.	.	.	.	.	.	.	.	.	.	.	2r	.	.	.	.	.
.	.	.	.	4G-\	.	.	4d-\	.	.	4d-/	.	.	4b-\	-ro-	.	4F-'/)	.	4d-'/)	.	4b-'/)	.	.	.	.	.	.	.	.	.	.	.	.	.	.	.	.	.	.	.
*	*	*	*	*	*	*	*	*	*	*	*	*	*	*	*	*	*	*	*	*	*	*Xrep	*	*	*	*	*	*	*	*	*	*	*	*	*	*	*	*	*
=85	=85	=85	=85	=85	=85	=85	=85	=85	=85	=85	=85	=85	=85	=85	=85	=85	=85	=85	=85	=85	=85	=85	=85	=85	=85	=85	=85	=85	=85	=85	=85	=85	=85	=85	=85	=85	=85	=85	=85
!	!	!LO:TX:b:i:t=legatiſs.	!	!	!	!	!	!	!	!	!	!	!	!	!	!LO:TX:b:i:t=legatiſs.	!	!LO:TX:a:i:t=legatiſs.	!	!LO:TX:a:i:t=legatiſs.	!	!	!	!	!	!	!	!	!	!	!	!	!	!	!	!	!	!	!
4GG-/	.	(2G-\	.	(2G-\	.	.	(2B-\	.	.	(>2d-/	.	.	(2b-\	-dze-	.	(2f-X\	.	(2d-/	.	(2b-/	.	4BB-/	.	1r	.	1r	.	1r	.	1r	.	1r	.	1r	.	1r	.	1r	.
4r	.	.	.	.	.	.	.	.	.	.	.	.	.	.	.	.	.	.	.	.	.	4r	.	.	.	.	.	.	.	.	.	.	.	.	.	.	.	.	.
!LO:TX:t=P:problem=ciąg dalszy od skanu 0076	!	!	!	!	!	!	!	!	!	!	!	!	!	!	!	!	!	!	!	!	!	!	!	!	!	!	!	!	!	!	!	!	!	!	!	!	!	!	!
2r	.	2GG-/)	.	2GG-/)	.	.	2An\)	.	.	2c/)	.	.	2e-/)	-nia	.	2An/)	.	2c/)	.	2e-/)	.	2r	.	.	.	.	.	.	.	.	.	.	.	.	.	.	.	.	.
!!LO:PB:g=original
=86	=86	=86	=86	=86	=86	=86	=86	=86	=86	=86	=86	=86	=86	=86	=86	=86	=86	=86	=86	=86	=86	=86	=86	=86	=86	=86	=86	=86	=86	=86	=86	=86	=86	=86	=86	=86	=86	=86	=86
!	!	!	!	!	!	!	!	!	!	!	!	!	!	!	!	!	!	!	!	!	!	!	!	!	!	!	!	!	!	!	!	!	!	!LO:TX:a:i:t=a due	!LO:DY:rj	!	!	!	!
(2G-\	.	1AA-	.	4.G-\	.	.	4.A-X/	słu-	.	[>1c-X	co	.	4.e-/	słu-	.	1A-X	.	1c-X	.	2e-/	.	1r	.	1r	.	1r	.	1r	.	1r	.	1r	.	(2G-\	pp	1r	.	1r	.
.	.	.	.	8G-\	.	.	8A-/	-chasz	.	.	.	.	8e-/	-chasz	.	.	.	.	.	.	.	.	.	.	.	.	.	.	.	.	.	.	.	.	.	.	.	.	.
4F\	.	.	.	4F\	.	.	4A-/	tyl-	.	.	.	.	4f/	tyl-	.	.	.	.	.	4f/	.	.	.	.	.	.	.	.	.	.	.	.	.	4F\	.	.	.	.	.
4E-\)	.	.	.	4E-\	.	.	4A-/	-ko	.	.	.	.	4g-/	-ko	.	.	.	.	.	4g-/	.	.	.	.	.	.	.	.	.	.	.	.	.	4E-\	.	.	.	.	.
=87	=87	=87	=87	=87	=87	=87	=87	=87	=87	=87	=87	=87	=87	=87	=87	=87	=87	=87	=87	=87	=87	=87	=87	=87	=87	=87	=87	=87	=87	=87	=87	=87	=87	=87	=87	=87	=87	=87	=87
!	!	!	!	!	!	!	!	!	!	!LO:ACC:color=blue	!	!	!	!	!	!	!	!	!	!	!	!	!	!	!	!	!	!	!	!	!	!	!	!	!	!	!	!	!
(4D-\	.	(4DD-/	.	(4D-\	.	.	2F/	.	.	2c-X/]	mó-	.	2a-/	co	.	(2F/	.	2c-X/	.	4a-/	.	1ryy	.	1ryy	.	1ryy	.	1ryy	.	1ryy	.	1ryy	.	4D-\	.	1ryy	.	1ryy	.
4Dn\	.	4DDn/	.	4Dn\	.	.	.	.	.	.	.	.	.	.	.	.	.	.	.	8r	.	.	.	.	.	.	.	.	.	.	.	.	.	4Dn\	.	.	.	.	.
.	.	.	.	.	.	.	.	.	.	.	.	.	.	.	.	.	.	.	.	8a-/	.	.	.	.	.	.	.	.	.	.	.	.	.	.	.	.	.	.	.
4E-\	.	4EE-/	.	4E-\)	.	.	4G-/	.	.	2cn/	-wi	.	4.ccn\	mó-	.	4G-/	.	2cn/	.	4.ccn^\	.	.	.	.	.	.	.	.	.	.	.	.	.	4E-\	.	.	.	.	.
4En\)	.	4EEn/)	.	4En\	.	.	4Gn/	.	.	.	.	.	.	.	.	4Gn/)	.	.	.	.	.	.	.	.	.	.	.	.	.	.	.	.	.	4En\	.	.	.	.	.
.	.	.	.	.	.	.	.	.	.	.	.	.	8b-\	-wi	.	.	.	.	.	8b-\	.	.	.	.	.	.	.	.	.	.	.	.	.	.	.	.	.	.	.
=88	=88	=88	=88	=88	=88	=88	=88	=88	=88	=88	=88	=88	=88	=88	=88	=88	=88	=88	=88	=88	=88	=88	=88	=88	=88	=88	=88	=88	=88	=88	=88	=88	=88	=88	=88	=88	=88	=88	=88
(4F\	.	(4FF/	.	4F\	.	.	4B-/	.	.	4d-/	.	.	4b-/	Bóg	.	(2A-/	.	2.d-/	.	(4b-/	.	1ryy	.	1ryy	.	1ryy	.	1ryy	.	1ryy	.	1ryy	.	4F\	.	1ryy	.	1ryy	.
4D-\	.	4AA-/	.	4D-\	.	.	4F/@	.	.	4d-/	.	.	4a-/	do	.	.	.	.	.	4a-/	.	.	.	.	.	.	.	.	.	.	.	.	.	4D-X\	.	.	.	.	.
4BB-/	.	4D-/	.	4D-\	.	.	4F/@	.	.	4d-/	.	.	4d-/	przy-	.	4F/	.	.	.	4d-/	.	.	.	.	.	.	.	.	.	.	.	.	.	4BB-/	.	.	.	.	.
!	!	!	!	!	!	!	!LO:ACC:color=blue	!	!	!	!	!	!	!	!	!	!	!	!	!	!	!	!	!	!	!	!	!	!	!	!	!	!	!	!	!	!	!	!
4GG-/)	.	4BB-/)	.	4C/	.	.	4G-X/	.	.	4d-/	.	.	4e-/	-ro-	.	4G-/)	.	4d-/	.	4e-/)	.	.	.	.	.	.	.	.	.	.	.	.	.	4GG-/	.	.	.	.	.
=89	=89	=89	=89	=89	=89	=89	=89	=89	=89	=89	=89	=89	=89	=89	=89	=89	=89	=89	=89	=89	=89	=89	=89	=89	=89	=89	=89	=89	=89	=89	=89	=89	=89	=89	=89	=89	=89	=89	=89
*	*	*	*	*	*	*	*	*	*	*	*	*	*	*	*	*	*	*	*	*	*	*	*	*	*	*	*	*	*	*	*	*	*	*^	*	*	*	*	*
!	!	!	!	!	!	!	!	!	!	!	!	!	!	!	!	!	!	!	!	!	!	!	!	!	!	!	!	!	!	!	!	!	!	!LO:T:color=blue	!	!	!	!	!	!
1AA-	.	1AA-	.	1AA-	.	.	(2A-/	.	.	(2.d-/	.	.	(2.f/	-dze-	.	1A-	.	2.d-/	.	2.f/	.	1ryy	.	1r	.	1ryy	.	1ryy	.	1ryy	.	1r	.	[1AA-)	[>1AA-	.	1r	.	1ryy	.
.	.	.	.	.	.	.	2G-/)	.	.	.	.	.	.	.	.	.	.	.	.	.	.	.	.	.	.	.	.	.	.	.	.	.	.	.	.	.	.	.	.	.
!	!	!	!	!	!	!	!	!	!	!	!	!	!	!	!	!	!	!	!	!	!	!	!	!LO:TX:a:i:t=Solo	!	!	!	!	!	!	!	!	!	!	!	!	!LO:TX:a:i:t=Soli	!	!	!
.	.	.	.	.	.	.	.	.	.	4c/)	.	.	4e-/)	.	.	.	.	4c/	.	4e-/	.	.	.	.	pp	.	.	.	.	.	.	.	.	.	.	.	.	p	.	.
*	*	*clefC4	*	*	*	*	*	*	*	*	*	*	*	*	*	*	*	*	*	*	*	*	*	*	*	*	*	*	*	*	*	*	*	*	*	*	*	*	*	*
=90	=90	=90	=90	=90	=90	=90	=90	=90	=90	=90	=90	=90	=90	=90	=90	=90	=90	=90	=90	=90	=90	=90	=90	=90	=90	=90	=90	=90	=90	=90	=90	=90	=90	=90	=90	=90	=90	=90	=90	=90
!	!	!LO:TX:b:i:t=non troppo forte	!	!	!	!	!	!	!	!	!	!	!	!	!	!	!	!	!	!LO:TX:a:i:t=non troppo forte	!	!	!	!	!	!	!	!	!	!	!LO:DY:color=blue	!	!	!	!	!	!	!	!	!
[1D-	.	2A-^\	.	[1D-	.	.	[>1F	.	.	[>1d-	.	.	[>1d-	-nia	.	4A-/	.	4d-/	.	2A-^/	.	1ryy	.	[>1FF	.	1ryy	.	1ryy	.	1ryy	.	2A-X 2F/	pp	1AA-_	1AA-_>	.	(2f 2d-/	.	1ryy	.
.	.	.	.	.	.	.	.	.	.	.	.	.	.	.	.	4r	.	4r	.	.	.	.	.	.	.	.	.	.	.	.	.	.	.	.	.	.	.	.	.	.
.	.	4.A-^\	.	.	.	.	.	.	.	.	.	.	.	.	.	2r	.	2r	.	4.A-^/	.	.	.	.	.	.	.	.	.	.	.	4A- 4F/	.	.	.	.	4f 4d-'/	.	.	.
.	.	.	.	.	.	.	.	.	.	.	.	.	.	.	.	.	.	.	.	.	.	.	.	.	.	.	.	.	.	.	.	4A- 4F/	.	.	.	.	4f 4d-'/)	.	.	.
.	.	8A-\	.	.	.	.	.	.	.	.	.	.	.	.	.	.	.	.	.	8A-/	.	.	.	.	.	.	.	.	.	.	.	.	.	.	.	.	.	.	.	.
=91	=91	=91	=91	=91	=91	=91	=91	=91	=91	=91	=91	=91	=91	=91	=91	=91	=91	=91	=91	=91	=91	=91	=91	=91	=91	=91	=91	=91	=91	=91	=91	=91	=91	=91	=91	=91	=91	=91	=91	=91
*	*	*	*	*	*	*	*	*	*	*	*	*	*	*	*	*	*	*	*	*	*	*	*	*rep	*	*	*	*	*	*	*	*	*	*rep	*rep	*	*	*	*	*
1D-_	.	[2.d-^\	.	4D-\]	.	.	4F/]	.	.	4d-/]	.	.	4d-/]	.	.	1r	.	1r	.	[2.d-/	.	1ryy	.	1FF_>	.	1ryy	.	1ryy	.	1ryy	.	2.A-X 2.F/	.	1AA-_	1AA-_>	.	2.f 2.d-/	.	1ryy	.
.	.	.	.	4r	.	.	4r	.	.	4r	.	.	4r	.	.	.	.	.	.	.	.	.	.	.	.	.	.	.	.	.	.	.	.	.	.	.	.	.	.	.
.	.	.	.	2r	.	.	2r	.	.	2r	.	.	2r	.	.	.	.	.	.	.	.	.	.	.	.	.	.	.	.	.	.	.	.	.	.	.	.	.	.	.
.	.	8d-\L]	.	.	.	.	.	.	.	.	.	.	.	.	.	.	.	.	.	8d-/L]	.	.	.	.	.	.	.	.	.	.	.	4A- 4F/	.	.	.	.	4f 4d-/	.	.	.
.	.	8d-\J	.	.	.	.	.	.	.	.	.	.	.	.	.	.	.	.	.	8e-/J	.	.	.	.	.	.	.	.	.	.	.	.	.	.	.	.	.	.	.	.
*	*	*	*	*	*	*	*	*	*	*	*	*	*	*	*	*	*	*	*	*	*	*	*	*Xrep	*	*	*	*	*	*	*	*	*	*Xrep	*Xrep	*	*	*	*	*
=92	=92	=92	=92	=92	=92	=92	=92	=92	=92	=92	=92	=92	=92	=92	=92	=92	=92	=92	=92	=92	=92	=92	=92	=92	=92	=92	=92	=92	=92	=92	=92	=92	=92	=92	=92	=92	=92	=92	=92	=92
*	*	*	*	*	*	*	*	*	*	*	*	*	*	*	*	*	*	*	*	*	*	*	*	*rep	*	*	*	*	*	*	*	*	*	*rep	*rep	*	*	*	*	*
1D-]	.	4f^\	.	1r	.	.	1r	.	.	1r	.	.	1r	.	.	1r	.	1r	.	4f^/	.	1ryy	.	1FF_>	.	1ryy	.	1ryy	.	1ryy	.	(4.A-X 4.F/	.	1AA-_	1AA-_>	.	(4.f 4.d-^/	.	1ryy	.
.	.	4e-^\	.	.	.	.	.	.	.	.	.	.	.	.	.	.	.	.	.	4e-^/	.	.	.	.	.	.	.	.	.	.	.	.	.	.	.	.	.	.	.	.
.	.	.	.	.	.	.	.	.	.	.	.	.	.	.	.	.	.	.	.	.	.	.	.	.	.	.	.	.	.	.	.	8A- 8F/	.	.	.	.	8f 8d-/	.	.	.
.	.	4.d-^\	.	.	.	.	.	.	.	.	.	.	.	.	.	.	.	.	.	4.d-^/	.	.	.	.	.	.	.	.	.	.	.	4A- 4F'/	.	.	.	.	4f 4d-'/	.	.	.
.	.	.	.	.	.	.	.	.	.	.	.	.	.	.	.	.	.	.	.	.	.	.	.	.	.	.	.	.	.	.	.	4A- 4F'/)	.	.	.	.	4f 4d-'/)	.	.	.
.	.	8B-\	.	.	.	.	.	.	.	.	.	.	.	.	.	.	.	.	.	8B-/	.	.	.	.	.	.	.	.	.	.	.	.	.	.	.	.	.	.	.	.
*	*	*	*	*	*	*	*	*	*	*	*	*	*	*	*	*	*	*	*	*	*	*	*	*Xrep	*	*	*	*	*	*	*	*	*	*Xrep	*Xrep	*	*	*	*	*
=93	=93	=93	=93	=93	=93	=93	=93	=93	=93	=93	=93	=93	=93	=93	=93	=93	=93	=93	=93	=93	=93	=93	=93	=93	=93	=93	=93	=93	=93	=93	=93	=93	=93	=93	=93	=93	=93	=93	=93	=93
2D-\	.	[2.A-\	.	1r	.	.	1r	.	.	1r	.	.	1r	.	.	1r	.	1r	.	[2.A-/	.	1r	.	4FF/]	.	1r	.	1r	.	1r	.	2A-X 2F/	.	4AA-/]	4AA-\]	.	2f 2d-/	.	1ryy	.
.	.	.	.	.	.	.	.	.	.	.	.	.	.	.	.	.	.	.	.	.	.	.	.	4r	.	.	.	.	.	.	.	.	.	4r	4rEEyy	.	.	.	.	.
2D-\	.	.	.	.	.	.	.	.	.	.	.	.	.	.	.	.	.	.	.	.	.	.	.	2DD-/	.	.	.	.	.	.	.	2A- 2F/	.	2AA-/	2AA-\	.	2f 2d-/	.	.	.
!	!	!LO:TX:t=P:problem=mixed beam	!	!	!	!	!	!	!	!	!	!	!	!	!	!	!	!	!	!	!	!	!	!	!	!	!	!	!	!	!	!	!	!	!	!	!	!	!	!
.	.	8A-\L]	.	.	.	.	.	.	.	.	.	.	.	.	.	.	.	.	.	(8A-/L]	.	.	.	.	.	.	.	.	.	.	.	.	.	.	.	.	.	.	.	.
.	.	8D-/J	.	.	.	.	.	.	.	.	.	.	.	.	.	.	.	.	.	8d-/J)	.	.	.	.	.	.	.	.	.	.	.	.	.	.	.	.	.	.	.	.
=94	=94	=94	=94	=94	=94	=94	=94	=94	=94	=94	=94	=94	=94	=94	=94	=94	=94	=94	=94	=94	=94	=94	=94	=94	=94	=94	=94	=94	=94	=94	=94	=94	=94	=94	=94	=94	=94	=94	=94	=94
!LO:TX:b:t=Dwa takty brak z Fortepia	!	!	!	!	!	!	!	!	!	!	!	!	!	!	!	!	!	!	!	!	!LO:DY:rj	!	!	!	!	!	!	!	!	!	!	!LO:ACC:color=blue	!	!	!	!	!	!	!	!
1D-;	.	1D-;	.	1r;	.	.	1r;	.	.	1r;	.	.	1r;	.	.	1r;	.	1r;	.	1d-;	pp	1r	.	1DD-;	.	1r;	.	1r;	.	1r;	.	1A-X 1F;	.	1AA-;	1AA-	.	1f 1d-;	.	1r;	.
*	*	*	*	*	*	*	*	*	*	*	*	*	*	*	*	*	*	*	*	*	*	*	*	*	*	*	*	*	*	*	*	*	*	*v	*v	*	*	*	*	*
==	==	==	==	==	==	==	==	==	==	==	==	==	==	==	==	==	==	==	==	==	==	==	==	==	==	==	==	==	==	==	==	==	==	==	==	==	==	==	==
*-	*-	*-	*-	*-	*-	*-	*-	*-	*-	*-	*-	*-	*-	*-	*-	*-	*-	*-	*-	*-	*-	*-	*-	*-	*-	*-	*-	*-	*-	*-	*-	*-	*-	*-	*-	*-	*-	*-	*-
!!!system-decoration: [(s1,s2,s3{g1}{g2}s8,s9,s10,s11,s12{g3}s17,s18)]
!!!RDF**kern: > = above
!!!RDF**kern: < = below
!!!RDF**kern: | = vertical stroke
!!!RDF**kern: @ = marked note, color=blue
!!!ENC: Mateusz Solarz
!!!END: 2021-07-30
!!!ENC: Marta Lawrence
!!!END: 2021-09-04
!!!YEC: Copyright 2022 Narodowy Instytut Fryderyka Chopina (https://polishscores.org)
!!!YEM: Licence CC BY 4.0 (https://creativecommons.org/licenses/by/4.0)
